; generated by PrusaSlicer 2.1.1+win64 on 2020-03-23 at 18:37:12 UTC

; 

; external perimeters extrusion width = 1.13mm
; perimeters extrusion width = 1.13mm
; infill extrusion width = 1.13mm
; solid infill extrusion width = 1.13mm
; top infill extrusion width = 1.00mm

M73 P0 R8
M73 Q0 S8
M201 X1000 Y1000 Z1000 E5000 ; sets maximum accelerations, mm/sec^2
M203 X200 Y200 Z12 E120 ; sets maximum feedrates, mm/sec
M204 P1250 R1250 T1250 ; sets acceleration (P, T) and retract acceleration (R), mm/sec^2
M205 X8.00 Y8.00 Z0.40 E4.50 ; sets the jerk limits, mm/sec
M205 S0 T0 ; sets the minimum extruding and travel feed rate, mm/sec
M107
M862.3 P "MK3S" ; printer model check
M862.1 P1 ; nozzle diameter check
M115 U3.8.1 ; tell printer latest fw version
G90 ; use absolute coordinates
M83 ; extruder relative mode
M104 S215 ; set extruder temp
M140 S60 ; set bed temp
M190 S60 ; wait for bed temp
M109 S215 ; wait for extruder temp
G28 W ; home all without mesh bed level
G80 ; mesh bed leveling
G1 Y-3.0 F1000.0 ; go outside print area
G92 E0.0
G1 X60.0 E9.0 F1000.0 ; intro line
M73 Q0 S8
M73 P0 R8
G1 X100.0 E12.5 F1000.0 ; intro line
G92 E0.0
M221 S95
G21 ; set units to millimeters
G90 ; use absolute coordinates
M83 ; use relative distances for extrusion
M900 K30 ; Filament gcode
;BEFORE_LAYER_CHANGE
G92 E0.0
;1


G1 E-0.80000 F2100.00000
G1 Z2.000 F10800.000
;AFTER_LAYER_CHANGE
;1
G1 X5.999 Y9.867
G1 Z1.000
G1 E0.80000 F2100.00000
M204 S1000
G1 F988.578
G1 X103.141 Y9.867 E10.99631
G1 X103.141 Y11.724 E0.21022
G1 X5.999 Y11.724 E10.99631
G1 X5.999 Y10.017 E0.19324
G1 F8640
G1 X9.291 Y10.012 E-0.76000
G1 E-0.04000 F2100.00000
G1 Z3.000 F10800.000
G1 X5.089 Y8.964
G1 Z1.000
G1 E0.80000 F2100.00000
G1 F988.578
G1 X104.029 Y8.956 E11.19983
G1 X104.051 Y8.964 E0.00271
G1 X104.051 Y12.634 E0.41553
G1 X5.089 Y12.634 E11.20242
G1 X5.089 Y9.114 E0.39855
G1 X6.089 Y8.976 F10800.000
G1 F8640
G1 X8.380 Y9.108 E-0.76000
G1 E-0.04000 F2100.00000
G1 Z3.000 F10800.000
G1 X8.117 Y11.451
G1 Z1.000
G1 E0.80000 F2100.00000
G1 F986.174
G1 X7.216 Y10.550 E0.14463
G1 X8.507 Y10.550 E0.14645
G1 X8.998 Y11.041 E0.07888
G1 X10.289 Y11.041 E0.14645
G1 X9.797 Y10.550 E0.07888
G1 X11.088 Y10.550 E0.14645
G1 X11.580 Y11.041 E0.07888
G1 X12.870 Y11.041 E0.14645
G1 X12.379 Y10.550 E0.07888
G1 X13.669 Y10.550 E0.14645
G1 X14.161 Y11.041 E0.07888
G1 X15.452 Y11.041 E0.14645
G1 X14.960 Y10.550 E0.07888
G1 X16.251 Y10.550 E0.14645
G1 X16.742 Y11.041 E0.07888
G1 X18.033 Y11.041 E0.14645
G1 X17.541 Y10.550 E0.07888
G1 X18.832 Y10.550 E0.14645
G1 X19.323 Y11.041 E0.07888
G1 X20.614 Y11.041 E0.14645
G1 X20.123 Y10.550 E0.07888
G1 X21.413 Y10.550 E0.14645
G1 X21.905 Y11.041 E0.07888
G1 X23.195 Y11.041 E0.14645
G1 X22.704 Y10.550 E0.07888
G1 X23.994 Y10.550 E0.14645
G1 X24.486 Y11.041 E0.07888
G1 X25.777 Y11.041 E0.14645
G1 X25.285 Y10.550 E0.07888
G1 X26.576 Y10.550 E0.14645
G1 X27.067 Y11.041 E0.07888
G1 X28.358 Y11.041 E0.14645
G1 X27.866 Y10.550 E0.07888
G1 X29.157 Y10.550 E0.14645
G1 X29.649 Y11.041 E0.07888
G1 X30.939 Y11.041 E0.14645
G1 X30.448 Y10.550 E0.07888
G1 X31.738 Y10.550 E0.14645
G1 X32.230 Y11.041 E0.07888
G1 X33.520 Y11.041 E0.14645
G1 X33.029 Y10.550 E0.07888
G1 X34.320 Y10.550 E0.14645
G1 X34.811 Y11.041 E0.07888
G1 X36.102 Y11.041 E0.14645
G1 X35.610 Y10.550 E0.07888
G1 X36.901 Y10.550 E0.14645
G1 X37.392 Y11.041 E0.07888
G1 X38.683 Y11.041 E0.14645
G1 X38.191 Y10.550 E0.07888
G1 X39.482 Y10.550 E0.14645
G1 X39.974 Y11.041 E0.07888
G1 X41.264 Y11.041 E0.14645
G1 X40.773 Y10.550 E0.07888
G1 X42.063 Y10.550 E0.14645
G1 X42.555 Y11.041 E0.07888
G1 X43.846 Y11.041 E0.14645
G1 X43.354 Y10.550 E0.07888
G1 X44.645 Y10.550 E0.14645
G1 X45.136 Y11.041 E0.07888
G1 X46.427 Y11.041 E0.14645
G1 X45.935 Y10.550 E0.07888
G1 X47.226 Y10.550 E0.14645
G1 X47.717 Y11.041 E0.07888
G1 X49.008 Y11.041 E0.14645
G1 X48.517 Y10.550 E0.07888
G1 X49.807 Y10.550 E0.14645
G1 X50.299 Y11.041 E0.07888
G1 X51.589 Y11.041 E0.14645
G1 X51.098 Y10.550 E0.07888
G1 X52.388 Y10.550 E0.14645
G1 X52.880 Y11.041 E0.07888
G1 X54.171 Y11.041 E0.14645
G1 X53.679 Y10.550 E0.07888
G1 X54.970 Y10.550 E0.14645
G1 X55.461 Y11.041 E0.07888
G1 X56.752 Y11.041 E0.14645
G1 X56.260 Y10.550 E0.07888
G1 X57.551 Y10.550 E0.14645
G1 X58.043 Y11.041 E0.07888
G1 X59.333 Y11.041 E0.14645
G1 X58.842 Y10.550 E0.07888
G1 X60.132 Y10.550 E0.14645
G1 X60.624 Y11.041 E0.07888
G1 X61.914 Y11.041 E0.14645
G1 X61.423 Y10.550 E0.07888
G1 X62.714 Y10.550 E0.14645
G1 X63.205 Y11.041 E0.07888
G1 X64.496 Y11.041 E0.14645
G1 X64.004 Y10.550 E0.07888
G1 X65.295 Y10.550 E0.14645
G1 X65.786 Y11.041 E0.07888
G1 X67.077 Y11.041 E0.14645
G1 X66.585 Y10.550 E0.07888
G1 X67.876 Y10.550 E0.14645
G1 X68.368 Y11.041 E0.07888
G1 X69.658 Y11.041 E0.14645
G1 X69.167 Y10.550 E0.07888
G1 X70.457 Y10.550 E0.14645
G1 X70.949 Y11.041 E0.07888
G1 X72.240 Y11.041 E0.14645
G1 X71.748 Y10.550 E0.07888
G1 X73.039 Y10.550 E0.14645
G1 X73.530 Y11.041 E0.07888
G1 X74.821 Y11.041 E0.14645
G1 X74.329 Y10.550 E0.07888
G1 X75.620 Y10.550 E0.14645
G1 X76.111 Y11.041 E0.07888
G1 X77.402 Y11.041 E0.14645
G1 X76.911 Y10.550 E0.07888
G1 X78.201 Y10.550 E0.14645
G1 X78.693 Y11.041 E0.07888
G1 X79.983 Y11.041 E0.14645
G1 X79.492 Y10.550 E0.07888
G1 X80.782 Y10.550 E0.14645
G1 X81.274 Y11.041 E0.07888
G1 X82.565 Y11.041 E0.14645
G1 X82.073 Y10.550 E0.07888
G1 X83.364 Y10.550 E0.14645
G1 X83.855 Y11.041 E0.07888
G1 X85.146 Y11.041 E0.14645
G1 X84.654 Y10.550 E0.07888
G1 X85.945 Y10.550 E0.14645
G1 X86.437 Y11.041 E0.07888
G1 X87.727 Y11.041 E0.14645
G1 X87.236 Y10.550 E0.07888
G1 X88.526 Y10.550 E0.14645
G1 X89.018 Y11.041 E0.07888
G1 X90.308 Y11.041 E0.14645
G1 X89.817 Y10.550 E0.07888
G1 X91.108 Y10.550 E0.14645
G1 X91.599 Y11.041 E0.07888
G1 X92.890 Y11.041 E0.14645
G1 X92.398 Y10.550 E0.07888
G1 X93.689 Y10.550 E0.14645
G1 X94.180 Y11.041 E0.07888
G1 X95.471 Y11.041 E0.14645
G1 X94.979 Y10.550 E0.07888
G1 X96.270 Y10.550 E0.14645
G1 X96.762 Y11.041 E0.07888
G1 X98.052 Y11.041 E0.14645
G1 X97.561 Y10.550 E0.07888
G1 X98.851 Y10.550 E0.14645
G1 X99.343 Y11.041 E0.07888
G1 X100.634 Y11.041 E0.14645
G1 X100.142 Y10.550 E0.07888
G1 X101.433 Y10.550 E0.14645
G1 X102.334 Y11.451 E0.14463
M106 S255
;BEFORE_LAYER_CHANGE
G92 E0.0
;2


G1 F8640
G1 X101.433 Y10.550 E-0.29429
G1 X100.142 Y10.550 E-0.29801
G1 X100.634 Y11.041 E-0.16052
G1 X100.602 Y11.041 E-0.00718
G1 E-0.04000 F2100.00000
G1 Z3.000 F10800.000
;AFTER_LAYER_CHANGE
;2
M104 S210 ; set temperature
G1 X103.141 Y11.724
G1 Z2.000
G1 E0.80000 F2100.00000
M204 S800
G1 F988.578
G1 X5.999 Y11.724 E10.99631
G1 X5.999 Y9.913 E0.20496
G1 X103.141 Y9.913 E10.99631
G1 X103.141 Y11.574 E0.18803
M204 S1000
G1 F8640
G1 X99.850 Y11.579 E-0.76000
G1 E-0.04000 F2100.00000
G1 Z4.000 F10800.000
G1 X104.051 Y12.634
G1 Z2.000
G1 E0.80000 F2100.00000
M204 S800
G1 F988.578
G1 X5.089 Y12.634 E11.20242
G1 X5.089 Y9.003 E0.41111
G1 X104.051 Y9.003 E11.20242
M73 Q13 S7
M73 P13 R7
G1 X104.051 Y12.484 E0.39414
M204 S1000
G1 X103.052 Y12.622 F10800.000
;BEFORE_LAYER_CHANGE
G92 E0.0
;3


G1 F8640
G1 X100.760 Y12.489 E-0.76000
G1 E-0.04000 F2100.00000
G1 Z4.000 F10800.000
;AFTER_LAYER_CHANGE
;3
G1 X6.440 Y11.724
G1 Z3.000
G1 E0.80000 F2100.00000
M204 S800
G1 F900
G1 X5.999 Y11.724 E0.04987
G1 X5.999 Y10.628 E0.12402
G1 X6.440 Y10.628 E0.04987
G1 X6.440 Y11.574 E0.10704
M204 S1000
G1 F8640
G1 X5.999 Y11.724 E-0.10746
G1 X5.999 Y10.628 E-0.25297
G1 X6.440 Y10.628 E-0.10172
G1 X6.440 Y11.574 E-0.21834
G1 E-0.11952 F2100.00000
G1 Z5.000 F10800.000
G1 X7.350 Y12.634
G1 Z3.000
G1 E0.80000 F2100.00000
M204 S800
G1 F900
G1 X5.089 Y12.634 E0.25598
G1 X5.089 Y9.718 E0.33013
G1 X7.350 Y9.718 E0.25598
G1 X7.350 Y12.484 E0.31315
M204 S1000
G1 X6.396 Y12.335 F10800.000
G1 F8640
G1 X5.089 Y12.634 E-0.52329
G1 X5.089 Y11.609 E-0.23671
G1 E-0.04000 F2100.00000
G1 Z5.000 F10800.000
G1 X17.077 Y11.724
G1 Z3.000
G1 E0.80000 F2100.00000
M204 S800
G1 F900
G1 X17.077 Y10.628 E0.12402
G1 X17.254 Y10.628 E0.02000
G1 X17.254 Y11.724 E0.12402
G1 X17.227 Y11.724 E0.00302
M204 S1000
G1 F8640
G1 X17.077 Y10.628 E-0.25533
G1 X17.254 Y10.628 E-0.04080
G1 X17.254 Y11.724 E-0.25297
G1 X17.227 Y11.724 E-0.00616
G1 E-0.24473 F2100.00000
G1 Z5.000 F10800.000
G1 X18.164 Y12.634
G1 Z3.000
G1 E0.80000 F2100.00000
M204 S800
G1 F900
G1 X16.167 Y12.634 E0.22611
G1 X16.167 Y9.718 E0.33013
G1 X18.164 Y9.718 E0.22611
G1 X18.164 Y12.484 E0.31315
M204 S1000
G1 X17.216 Y12.317 F10800.000
G1 F8640
G1 X16.167 Y12.634 E-0.46253
G1 X16.167 Y11.346 E-0.29747
G1 E-0.04000 F2100.00000
G1 Z5.000 F10800.000
G1 X22.667 Y11.724
G1 Z3.000
G1 E0.80000 F2100.00000
M204 S800
G1 F900
G1 X22.667 Y10.628 E0.12402
G1 X23.330 Y10.628 E0.07510
G1 X23.330 Y11.724 E0.12402
G1 X22.817 Y11.724 E0.05812
M204 S1000
G1 F8640
G1 X22.667 Y10.628 E-0.25533
G1 X23.330 Y10.628 E-0.15318
G1 X23.330 Y11.724 E-0.25297
G1 X22.903 Y11.724 E-0.09852
G1 E-0.04000 F2100.00000
G1 Z5.000 F10800.000
G1 X21.756 Y12.634
G1 Z3.000
G1 E0.80000 F2100.00000
M204 S800
G1 F900
G1 X21.756 Y9.718 E0.33013
G1 X24.240 Y9.718 E0.28121
G1 X24.240 Y12.634 E0.33013
G1 X21.906 Y12.634 E0.26423
M204 S1000
G1 X21.989 Y11.662 F10800.000
G1 F8640
G1 X21.756 Y9.718 E-0.67429
G1 X22.127 Y9.718 E-0.08571
G1 E-0.04000 F2100.00000
G1 Z5.000 F10800.000
G1 X28.795 Y11.724
G1 Z3.000
G1 E0.80000 F2100.00000
M204 S800
G1 F900
G1 X28.795 Y10.628 E0.12402
G1 X29.459 Y10.628 E0.07510
G1 X29.459 Y11.724 E0.12402
G1 X28.945 Y11.724 E0.05812
M204 S1000
G1 F8640
G1 X28.795 Y10.628 E-0.25533
G1 X29.459 Y10.628 E-0.15318
G1 X29.459 Y11.724 E-0.25297
G1 X29.032 Y11.724 E-0.09852
G1 E-0.04000 F2100.00000
G1 Z5.000 F10800.000
G1 X27.885 Y12.634
G1 Z3.000
G1 E0.80000 F2100.00000
M204 S800
G1 F900
G1 X27.885 Y9.718 E0.33013
G1 X30.369 Y9.718 E0.28121
G1 X30.369 Y12.634 E0.33013
G1 X28.035 Y12.634 E0.26423
M204 S1000
G1 X28.118 Y11.662 F10800.000
G1 F8640
G1 X27.885 Y9.718 E-0.67429
G1 X28.256 Y9.718 E-0.08571
G1 E-0.04000 F2100.00000
G1 Z5.000 F10800.000
G1 X35.129 Y11.724
G1 Z3.000
G1 E0.80000 F2100.00000
M204 S800
G1 F900
G1 X35.129 Y10.628 E0.12402
G1 X35.520 Y10.628 E0.04426
G1 X35.520 Y11.724 E0.12402
G1 X35.279 Y11.724 E0.02728
M204 S1000
G1 F8640
G1 X35.129 Y10.628 E-0.25533
G1 X35.520 Y10.628 E-0.09028
G1 X35.520 Y11.724 E-0.25297
G1 X35.279 Y11.724 E-0.05565
G1 E-0.14576 F2100.00000
G1 Z5.000 F10800.000
G1 X34.218 Y12.634
G1 Z3.000
G1 E0.80000 F2100.00000
M204 S800
G1 F900
G1 X34.218 Y9.718 E0.33013
G1 X36.430 Y9.718 E0.25037
G1 X36.430 Y12.634 E0.33013
G1 X34.368 Y12.634 E0.23339
M204 S1000
G1 X34.433 Y11.658 F10800.000
G1 F8640
G1 X34.218 Y9.718 E-0.67429
G1 X34.589 Y9.718 E-0.08571
G1 E-0.04000 F2100.00000
G1 Z5.000 F10800.000
G1 X40.508 Y11.724
G1 Z3.000
G1 E0.80000 F2100.00000
M204 S800
G1 F900
G1 X40.508 Y10.628 E0.12402
G1 X46.347 Y10.628 E0.66095
G1 X46.347 Y11.724 E0.12402
G1 X40.658 Y11.724 E0.64397
M204 S1000
G1 F8640
G1 X40.508 Y10.628 E-0.25533
G1 X42.694 Y10.628 E-0.50467
G1 E-0.04000 F2100.00000
G1 Z5.000 F10800.000
G1 X39.598 Y12.634
G1 Z3.000
G1 E0.80000 F2100.00000
M204 S800
G1 F900
G1 X39.598 Y9.718 E0.33013
G1 X47.258 Y9.718 E0.86706
G1 X47.258 Y12.634 E0.33013
G1 X39.748 Y12.634 E0.85008
M204 S1000
G1 X39.989 Y11.714 F10800.000
G1 F8640
G1 X39.598 Y9.718 E-0.67429
G1 X39.969 Y9.718 E-0.08571
G1 E-0.04000 F2100.00000
G1 Z5.000 F10800.000
G1 X51.676 Y11.724
G1 Z3.000
G1 E0.80000 F2100.00000
M204 S800
G1 F900
G1 X51.676 Y10.628 E0.12402
G1 X58.401 Y10.628 E0.76116
G1 X58.401 Y11.724 E0.12402
G1 X51.826 Y11.724 E0.74418
M204 S1000
G1 F8640
G1 X51.676 Y10.628 E-0.25533
G1 X53.862 Y10.628 E-0.50467
G1 E-0.04000 F2100.00000
G1 Z5.000 F10800.000
G1 X50.766 Y12.634
G1 Z3.000
G1 E0.80000 F2100.00000
M204 S800
G1 F900
G1 X50.766 Y9.718 E0.33013
G1 X59.311 Y9.718 E0.96727
G1 X59.311 Y12.634 E0.33013
G1 X50.916 Y12.634 E0.95029
M204 S1000
G1 X51.168 Y11.719 F10800.000
G1 F8640
G1 X50.766 Y9.718 E-0.67429
G1 X51.137 Y9.718 E-0.08571
G1 E-0.04000 F2100.00000
G1 Z5.000 F10800.000
G1 X63.798 Y11.724
G1 Z3.000
G1 E0.80000 F2100.00000
M204 S800
G1 F900
G1 X63.798 Y10.628 E0.12402
G1 X64.802 Y10.628 E0.11364
G1 X64.802 Y11.724 E0.12402
G1 X63.948 Y11.724 E0.09666
M204 S1000
G1 F8640
G1 X63.798 Y10.628 E-0.25533
G1 X64.802 Y10.628 E-0.23180
G1 X64.802 Y11.724 E-0.25297
G1 X64.716 Y11.724 E-0.01990
G1 E-0.04000 F2100.00000
G1 Z5.000 F10800.000
G1 X62.887 Y12.634
G1 Z3.000
G1 E0.80000 F2100.00000
M204 S800
G1 F900
G1 X62.887 Y9.718 E0.33013
G1 X65.712 Y9.718 E0.31975
G1 X65.712 Y12.634 E0.33013
G1 X63.037 Y12.634 E0.30277
M204 S1000
G1 X63.141 Y11.667 F10800.000
G1 F8640
G1 X62.887 Y9.718 E-0.67429
G1 X63.259 Y9.718 E-0.08571
G1 E-0.04000 F2100.00000
G1 Z5.000 F10800.000
G1 X69.728 Y11.724
G1 Z3.000
G1 E0.80000 F2100.00000
M204 S800
G1 F900
G1 X69.728 Y10.628 E0.12402
G1 X71.015 Y10.628 E0.14566
G1 X71.015 Y11.724 E0.12402
G1 X69.878 Y11.724 E0.12868
M204 S1000
G1 F8640
G1 X69.728 Y10.628 E-0.25533
G1 X71.015 Y10.628 E-0.29712
G1 X71.015 Y11.527 E-0.20755
G1 E-0.04000 F2100.00000
G1 Z5.000 F10800.000
G1 X68.818 Y12.634
G1 Z3.000
G1 E0.80000 F2100.00000
M204 S800
G1 F900
G1 X68.818 Y9.718 E0.33013
G1 X71.925 Y9.718 E0.35177
G1 X71.925 Y12.634 E0.33013
G1 X68.968 Y12.634 E0.33479
M204 S1000
G1 X69.087 Y11.671 F10800.000
G1 F8640
G1 X68.818 Y9.718 E-0.67429
G1 X69.189 Y9.718 E-0.08571
G1 E-0.04000 F2100.00000
G1 Z5.000 F10800.000
G1 X76.196 Y11.724
G1 Z3.000
G1 E0.80000 F2100.00000
M204 S800
G1 F900
G1 X76.196 Y10.628 E0.12402
G1 X77.384 Y10.628 E0.13445
G1 X77.384 Y11.724 E0.12402
G1 X76.346 Y11.724 E0.11747
M204 S1000
G1 F8640
G1 X76.196 Y10.628 E-0.25533
G1 X77.384 Y10.628 E-0.27425
G1 X77.384 Y11.626 E-0.23042
G1 E-0.04000 F2100.00000
G1 Z5.000 F10800.000
G1 X75.286 Y12.634
G1 Z3.000
G1 E0.80000 F2100.00000
M204 S800
G1 F900
G1 X75.286 Y9.718 E0.33013
G1 X78.295 Y9.718 E0.34056
G1 X78.295 Y12.634 E0.33013
G1 X75.436 Y12.634 E0.32358
M204 S1000
G1 X75.550 Y11.670 F10800.000
G1 F8640
G1 X75.286 Y9.718 E-0.67429
G1 X75.657 Y9.718 E-0.08571
G1 E-0.04000 F2100.00000
G1 Z5.000 F10800.000
G1 X81.621 Y11.724
G1 Z3.000
G1 E0.80000 F2100.00000
M204 S800
G1 F900
G1 X81.621 Y10.628 E0.12402
G1 X82.359 Y10.628 E0.08355
G1 X82.359 Y11.724 E0.12402
G1 X81.771 Y11.724 E0.06657
M204 S1000
G1 F8640
G1 X81.621 Y10.628 E-0.25533
G1 X82.359 Y10.628 E-0.17043
G1 X82.359 Y11.724 E-0.25297
G1 X82.007 Y11.724 E-0.08127
G1 E-0.04000 F2100.00000
G1 Z5.000 F10800.000
G1 X80.711 Y12.634
G1 Z3.000
G1 E0.80000 F2100.00000
M204 S800
G1 F900
G1 X80.711 Y9.718 E0.33013
G1 X83.269 Y9.718 E0.28966
G1 X83.269 Y12.634 E0.33013
G1 X80.861 Y12.634 E0.27268
M204 S1000
G1 X80.948 Y11.663 F10800.000
G1 F8640
G1 X80.711 Y9.718 E-0.67429
G1 X81.082 Y9.718 E-0.08571
G1 E-0.04000 F2100.00000
G1 Z5.000 F10800.000
G1 X88.956 Y11.724
G1 Z3.000
G1 E0.80000 F2100.00000
M204 S800
G1 F900
G1 X88.956 Y10.628 E0.12402
G1 X89.272 Y10.628 E0.03581
G1 X89.272 Y11.724 E0.12402
G1 X89.106 Y11.724 E0.01883
M204 S1000
G1 F8640
G1 X88.956 Y10.628 E-0.25533
G1 X89.272 Y10.628 E-0.07305
G1 X89.272 Y11.724 E-0.25297
G1 X89.106 Y11.724 E-0.03842
G1 E-0.18023 F2100.00000
G1 Z5.000 F10800.000
G1 X88.046 Y12.634
G1 Z3.000
G1 E0.80000 F2100.00000
M204 S800
G1 F900
G1 X88.046 Y9.718 E0.33013
G1 X90.183 Y9.718 E0.24193
G1 X90.183 Y12.634 E0.33013
G1 X88.196 Y12.634 E0.22495
M204 S1000
G1 X88.255 Y11.657 F10800.000
G1 F8640
G1 X88.046 Y9.718 E-0.67429
G1 X88.417 Y9.718 E-0.08571
G1 E-0.04000 F2100.00000
G1 Z5.000 F10800.000
G1 X102.540 Y11.724
G1 Z3.000
G1 E0.80000 F2100.00000
M204 S800
G1 F900
G1 X102.540 Y10.628 E0.12402
G1 X103.141 Y10.628 E0.06806
G1 X103.141 Y11.724 E0.12402
G1 X102.690 Y11.724 E0.05108
M204 S1000
G1 F8640
G1 X102.540 Y10.628 E-0.25533
G1 X103.141 Y10.628 E-0.13883
G1 X103.141 Y11.724 E-0.25297
G1 X102.690 Y11.724 E-0.10419
G1 E-0.04867 F2100.00000
G1 Z5.000 F10800.000
G1 X101.629 Y12.634
G1 Z3.000
G1 E0.80000 F2100.00000
M204 S800
G1 F900
G1 X101.629 Y9.718 E0.33013
G1 X104.051 Y9.718 E0.27417
G1 X104.051 Y12.634 E0.33013
G1 X101.779 Y12.634 E0.25719
M204 S1000
G1 X101.858 Y11.661 F10800.000
;BEFORE_LAYER_CHANGE
G92 E0.0
;4


G1 F8640
G1 X101.629 Y9.718 E-0.67429
G1 X102.001 Y9.718 E-0.08571
