; generated by PrusaSlicer 2.1.1+win64 on 2020-03-23 at 18:29:13 UTC

; 

; external perimeters extrusion width = 1.13mm
; perimeters extrusion width = 1.13mm
; infill extrusion width = 1.13mm
; solid infill extrusion width = 1.13mm
; top infill extrusion width = 1.00mm

M73 P0 R40
M73 Q0 S40
M201 X1000 Y1000 Z1000 E5000 ; sets maximum accelerations, mm/sec^2
M203 X200 Y200 Z12 E120 ; sets maximum feedrates, mm/sec
M204 P1250 R1250 T1250 ; sets acceleration (P, T) and retract acceleration (R), mm/sec^2
M205 X8.00 Y8.00 Z0.40 E4.50 ; sets the jerk limits, mm/sec
M205 S0 T0 ; sets the minimum extruding and travel feed rate, mm/sec
M107
M862.3 P "MK3S" ; printer model check
M862.1 P1 ; nozzle diameter check
M115 U3.8.1 ; tell printer latest fw version
G90 ; use absolute coordinates
M83 ; extruder relative mode
M104 S215 ; set extruder temp
M140 S60 ; set bed temp
M190 S60 ; wait for bed temp
M109 S215 ; wait for extruder temp
G28 W ; home all without mesh bed level
G80 ; mesh bed leveling
G1 Y-3.0 F1000.0 ; go outside print area
G92 E0.0
G1 X60.0 E9.0 F1000.0 ; intro line
M73 Q0 S40
M73 P0 R40
G1 X100.0 E12.5 F1000.0 ; intro line
G92 E0.0
M221 S95
G21 ; set units to millimeters
G90 ; use absolute coordinates
M83 ; use relative distances for extrusion
M900 K30 ; Filament gcode
;BEFORE_LAYER_CHANGE
G92 E0.0
;1


G1 E-0.80000 F2100.00000
G1 Z2.000 F10800.000
;AFTER_LAYER_CHANGE
;1
G1 X57.545 Y61.611
G1 Z1.000
G1 E0.80000 F2100.00000
M204 S1000
G1 F988.578
G1 X57.811 Y61.390 E0.03913
G1 X58.118 Y61.222 E0.03957
G1 X58.473 Y61.113 E0.04206
G1 X58.820 Y61.078 E0.03948
G1 X59.171 Y61.112 E0.03998
G1 X59.521 Y61.217 E0.04130
G1 X59.831 Y61.385 E0.03995
G1 X60.099 Y61.604 E0.03915
G1 X60.319 Y61.870 E0.03910
G1 X60.485 Y62.175 E0.03933
G1 X60.591 Y62.508 E0.03952
G1 X60.630 Y62.874 E0.04167
G1 X60.598 Y63.221 E0.03948
G1 X60.498 Y63.560 E0.03995
G1 X60.326 Y63.886 E0.04172
G1 X60.105 Y64.156 E0.03952
G1 X59.837 Y64.377 E0.03937
G1 X59.515 Y64.551 E0.04136
G1 X59.176 Y64.653 E0.04009
G1 X58.832 Y64.687 E0.03919
G1 X58.484 Y64.655 E0.03951
G1 X58.136 Y64.551 E0.04107
G1 X57.826 Y64.386 E0.03977
G1 X57.555 Y64.164 E0.03967
G1 X57.332 Y63.896 E0.03943
G1 X57.165 Y63.591 E0.03942
G1 X57.057 Y63.244 E0.04110
G1 X57.020 Y62.888 E0.04050
G1 X57.053 Y62.541 E0.03947
G1 X57.158 Y62.192 E0.04131
G1 X57.323 Y61.882 E0.03973
G1 X57.450 Y61.727 E0.02268
G1 X57.454 Y61.277 F10800.000
G1 F8640
G1 X57.811 Y61.390 E-0.11401
G1 X58.118 Y61.222 E-0.08072
G1 X58.473 Y61.113 E-0.08579
G1 X58.820 Y61.078 E-0.08053
G1 X59.171 Y61.112 E-0.08155
G1 X59.521 Y61.217 E-0.08424
G1 X59.831 Y61.385 E-0.08149
G1 X60.099 Y61.604 E-0.07985
G1 X60.297 Y61.844 E-0.07182
G1 E-0.04000 F2100.00000
G1 Z3.000 F10800.000
G1 X57.117 Y60.783
G1 Z1.000
G1 E0.80000 F2100.00000
G1 F988.578
G1 X57.086 Y59.577 E0.13661
G1 X47.038 Y49.922 E1.57748
G1 X45.832 Y49.941 E0.13650
G1 X45.951 Y49.790 E0.02169
G1 X46.193 Y49.320 E0.05994
G1 X46.344 Y48.788 E0.06257
G1 X46.384 Y48.260 E0.05988
G1 X46.323 Y47.742 E0.05905
G1 X46.162 Y47.239 E0.05981
G1 X45.894 Y46.758 E0.06239
G1 X45.551 Y46.358 E0.05965
G1 X45.138 Y46.031 E0.05953
G1 X44.672 Y45.791 E0.05937
G1 X44.166 Y45.644 E0.05964
G1 X43.622 Y45.598 E0.06186
G1 X43.065 Y45.667 E0.06348
G1 X43.777 Y43.135 E0.29777
G1 X44.987 Y41.875 E0.19774
G1 X65.209 Y61.304 E3.17436
G1 X63.999 Y62.564 E0.19774
G1 X61.498 Y63.376 E0.29763
G1 X61.545 Y62.867 E0.05784
G1 X61.486 Y62.320 E0.06229
G1 X61.327 Y61.816 E0.05980
G1 X61.076 Y61.357 E0.05923
G1 X60.744 Y60.956 E0.05894
G1 X60.341 Y60.625 E0.05906
G1 X59.872 Y60.372 E0.06028
G1 X59.348 Y60.214 E0.06194
G1 X58.818 Y60.163 E0.06032
G1 X58.292 Y60.216 E0.05986
G1 X57.762 Y60.380 E0.06280
G1 X57.297 Y60.633 E0.05989
G1 X57.232 Y60.687 E0.00957
G1 F8640
G1 X57.086 Y59.577 E-0.25866
G1 X55.521 Y58.072 E-0.50134
G1 E-0.04000 F2100.00000
G1 Z3.000 F10800.000
G1 X44.967 Y49.567
G1 Z1.000
G1 E0.80000 F2100.00000
G1 F988.578
G1 X44.703 Y49.793 E0.03931
G1 X44.384 Y49.972 E0.04138
G1 X44.047 Y50.081 E0.04016
G1 X43.702 Y50.121 E0.03930
G1 X43.356 Y50.095 E0.03927
G1 X43.016 Y50.001 E0.03989
G1 X42.691 Y49.836 E0.04124
G1 X42.415 Y49.619 E0.03980
G1 X42.189 Y49.356 E0.03925
G1 X42.011 Y49.039 E0.04115
G1 X41.901 Y48.698 E0.04057
G1 X41.861 Y48.353 E0.03928
G1 X41.887 Y48.008 E0.03916
G1 X41.979 Y47.673 E0.03939
G1 X42.145 Y47.344 E0.04160
G1 X42.364 Y47.067 E0.04003
G1 X42.649 Y46.825 E0.04229
G1 X42.956 Y46.658 E0.03959
G1 X43.285 Y46.553 E0.03915
G1 X43.635 Y46.512 E0.03990
G1 X43.999 Y46.543 E0.04130
G1 X44.333 Y46.641 E0.03943
G1 X44.643 Y46.800 E0.03940
G1 X44.917 Y47.017 E0.03955
G1 X45.143 Y47.281 E0.03937
G1 X45.323 Y47.603 E0.04175
G1 X45.429 Y47.936 E0.03953
G1 X45.469 Y48.279 E0.03916
G1 X45.443 Y48.628 E0.03958
G1 X45.342 Y48.984 E0.04186
G1 X45.182 Y49.295 E0.03961
G1 X45.060 Y49.450 E0.02233
G1 X45.063 Y49.901 F10800.000
G1 F8640
G1 X44.703 Y49.793 E-0.11437
G1 X44.384 Y49.972 E-0.08441
G1 X44.047 Y50.081 E-0.08192
G1 X43.702 Y50.121 E-0.08016
G1 X43.356 Y50.095 E-0.08010
G1 X43.016 Y50.001 E-0.08137
G1 X42.691 Y49.836 E-0.08411
G1 X42.415 Y49.619 E-0.08119
G1 X42.211 Y49.381 E-0.07236
G1 E-0.04000 F2100.00000
G1 Z3.000 F10800.000
G1 X46.677 Y50.838
G1 Z1.000
G1 E0.80000 F2100.00000
G1 F988.578
G1 X45.168 Y50.862 E0.17090
G1 X44.286 Y50.827 E0.09985
G1 X43.435 Y50.733 E0.09692
G1 X42.816 Y50.613 E0.07138
G1 X41.173 Y49.035 E0.25793
G1 X42.963 Y42.669 E0.74855
G1 X44.962 Y40.588 E0.32663
G1 X66.496 Y61.278 E3.38048
G1 X64.497 Y63.359 E0.32663
G1 X58.208 Y65.402 E0.74855
G1 X56.565 Y63.823 E0.25791
G1 X56.420 Y63.209 E0.07145
G1 X56.292 Y62.362 E0.09694
G1 X56.225 Y61.544 E0.09295
G1 X56.186 Y59.974 E0.17775
G1 X46.785 Y50.942 E1.47570
G1 X46.427 Y49.870 F10800.000
G1 F8640
G1 X45.168 Y50.862 E-0.37399
G1 X44.286 Y50.827 E-0.20367
G1 X43.501 Y50.741 E-0.18234
G1 E-0.04000 F2100.00000
G1 Z3.000 F10800.000
G1 X46.618 Y47.915
G1 Z1.000
G1 E0.80000 F2100.00000
G1 F914.237
G1 X58.239 Y59.535 E2.01155
G1 X58.816 Y59.477 E0.07105
G1 X59.481 Y59.541 E0.08172
G1 X59.704 Y59.608 E0.02855
G1 X44.211 Y44.115 E2.68193
G1 X44.388 Y43.485 E0.08016
G1 X44.675 Y43.187 E0.05060
G1 X63.822 Y62.334 E3.31451
G1 X64.514 Y61.633 F10800.000
G1 F914.237
G1 X48.736 Y45.856 E2.73120
G1 F8640
G1 X51.063 Y48.183 E-0.76000
G1 E-0.04000 F2100.00000
G1 Z3.000 F10800.000
G1 X61.308 Y61.212
G1 Z1.000
G1 E0.80000 F2100.00000
G1 F914.237
G1 X62.771 Y62.675 E0.25324
G1 F8640
G1 X61.308 Y61.212 E-0.47771
G1 E-0.32229 F2100.00000
G1 Z3.000 F10800.000
G1 X80.521 Y40.299
G1 Z1.000
G1 E0.80000 F2100.00000
G1 F988.578
G1 X80.295 Y40.035 E0.03937
G1 X80.115 Y39.713 E0.04175
G1 X80.009 Y39.380 E0.03953
G1 X79.969 Y39.037 E0.03916
G1 X79.995 Y38.688 E0.03958
G1 X80.096 Y38.332 E0.04186
G1 X80.256 Y38.021 E0.03961
G1 X80.473 Y37.747 E0.03959
G1 X80.758 Y37.507 E0.04217
G1 X81.064 Y37.340 E0.03943
G1 X81.393 Y37.235 E0.03916
G1 X81.748 Y37.194 E0.04038
G1 X82.100 Y37.224 E0.04002
G1 X82.436 Y37.320 E0.03957
G1 X82.748 Y37.480 E0.03971
G1 X83.023 Y37.697 E0.03962
G1 X83.248 Y37.959 E0.03910
G1 X83.421 Y38.264 E0.03967
G1 X83.535 Y38.608 E0.04106
G1 X83.577 Y38.962 E0.04033
G1 X83.551 Y39.308 E0.03925
G1 X83.459 Y39.643 E0.03939
G1 X83.293 Y39.971 E0.04160
G1 X83.076 Y40.247 E0.03974
G1 X82.814 Y40.473 E0.03916
G1 X82.510 Y40.647 E0.03966
G1 X82.156 Y40.763 E0.04219
G1 X81.810 Y40.803 E0.03945
G1 X81.462 Y40.777 E0.03949
G1 X81.107 Y40.676 E0.04177
G1 X80.795 Y40.516 E0.03964
G1 X80.639 Y40.392 E0.02257
G1 X80.187 Y40.396 F10800.000
G1 F8640
G1 X80.295 Y40.035 E-0.11450
G1 X80.115 Y39.713 E-0.08517
G1 X80.009 Y39.380 E-0.08064
G1 X79.969 Y39.037 E-0.07988
G1 X79.995 Y38.688 E-0.08073
G1 X80.096 Y38.332 E-0.08539
G1 X80.256 Y38.021 E-0.08080
G1 X80.473 Y37.747 E-0.08076
G1 X80.712 Y37.545 E-0.07213
G1 E-0.04000 F2100.00000
G1 Z3.000 F10800.000
G1 X67.916 Y25.681
G1 Z1.000
G1 E0.80000 F2100.00000
G1 F988.578
G1 X67.654 Y25.907 E0.03915
G1 X67.350 Y26.081 E0.03966
G1 X66.996 Y26.197 E0.04219
G1 X66.650 Y26.237 E0.03944
G1 X66.302 Y26.211 E0.03949
G1 X65.947 Y26.110 E0.04178
G1 X65.635 Y25.950 E0.03964
G1 X65.360 Y25.732 E0.03978
G1 X65.123 Y25.451 E0.04159
G1 X64.955 Y25.145 E0.03953
G1 X64.849 Y24.814 E0.03931
G1 X64.809 Y24.471 E0.03916
G1 X64.835 Y24.122 E0.03958
G1 X64.936 Y23.766 E0.04186
G1 X65.096 Y23.455 E0.03961
G1 X65.312 Y23.183 E0.03931
G1 X65.576 Y22.956 E0.03942
G1 X65.901 Y22.775 E0.04218
G1 X66.233 Y22.669 E0.03945
G1 X66.589 Y22.628 E0.04049
G1 X66.951 Y22.660 E0.04119
G1 X67.283 Y22.757 E0.03911
G1 X67.589 Y22.915 E0.03895
G1 X67.863 Y23.131 E0.03957
G1 X68.088 Y23.393 E0.03910
G1 X68.261 Y23.698 E0.03966
G1 X68.375 Y24.042 E0.04106
G1 X68.417 Y24.396 E0.04033
G1 X68.391 Y24.744 E0.03945
G1 X68.292 Y25.095 E0.04126
G1 X68.132 Y25.407 E0.03972
G1 X68.009 Y25.564 E0.02256
G1 X68.013 Y26.013 F10800.000
G1 F8640
G1 X67.654 Y25.907 E-0.11405
G1 X67.350 Y26.081 E-0.08090
G1 X66.996 Y26.197 E-0.08606
G1 X66.650 Y26.237 E-0.08046
G1 X66.302 Y26.211 E-0.08055
G1 X65.947 Y26.110 E-0.08522
G1 X65.635 Y25.950 E-0.08085
G1 X65.360 Y25.732 E-0.08114
G1 X65.162 Y25.498 E-0.07077
G1 E-0.04000 F2100.00000
G1 Z3.000 F10800.000
G1 X68.321 Y26.534
G1 Z1.000
G1 E0.80000 F2100.00000
G1 F988.578
G1 X68.352 Y27.739 E0.13648
G1 X78.401 Y37.394 E1.57748
G1 X79.606 Y37.375 E0.13650
G1 X79.487 Y37.526 E0.02169
G1 X79.245 Y37.996 E0.05994
G1 X79.094 Y38.528 E0.06257
G1 X79.054 Y39.056 E0.05988
G1 X79.115 Y39.574 E0.05905
G1 X79.276 Y40.077 E0.05980
G1 X79.545 Y40.558 E0.06239
G1 X79.887 Y40.958 E0.05965
G1 X80.300 Y41.285 E0.05953
G1 X80.771 Y41.527 E0.05999
G1 X81.302 Y41.678 E0.06245
G1 X81.828 Y41.718 E0.05975
G1 X82.372 Y41.650 E0.06211
G1 X81.661 Y44.181 E0.29762
G1 X80.451 Y45.440 E0.19774
G1 X60.229 Y26.012 E3.17436
G1 X61.440 Y24.752 E0.19774
G1 X63.941 Y23.940 E0.29765
G1 X63.894 Y24.490 E0.06246
G1 X63.955 Y25.008 E0.05905
G1 X64.114 Y25.506 E0.05921
G1 X64.368 Y25.969 E0.05980
G1 X64.723 Y26.389 E0.06223
G1 X65.140 Y26.719 E0.06013
G1 X65.611 Y26.962 E0.05999
G1 X66.142 Y27.112 E0.06245
G1 X66.668 Y27.152 E0.05976
G1 X67.192 Y27.091 E0.05976
G1 X67.721 Y26.917 E0.06298
G1 X68.208 Y26.632 E0.06385
G1 F8640
G1 X68.352 Y27.739 E-0.25786
G1 X69.920 Y29.246 E-0.50214
G1 E-0.04000 F2100.00000
G1 Z3.000 F10800.000
G1 X69.252 Y27.342
G1 Z1.000
G1 E0.80000 F2100.00000
G1 F988.578
G1 X78.761 Y36.478 E1.49268
G1 X80.271 Y36.454 E0.17090
G1 X81.152 Y36.489 E0.09985
G1 X82.003 Y36.582 E0.09692
G1 X82.622 Y36.702 E0.07138
G1 X84.265 Y38.281 E0.25793
G1 X82.476 Y44.647 E0.74855
G1 X80.476 Y46.728 E0.32663
G1 X58.942 Y26.037 E3.38048
G1 X60.941 Y23.957 E0.32663
G1 X67.231 Y21.914 E0.74855
G1 X68.874 Y23.493 E0.25793
G1 X69.018 Y24.107 E0.07143
G1 X69.146 Y24.954 E0.09695
G1 X69.213 Y25.772 E0.09295
G1 X69.249 Y27.192 E0.16077
G1 X68.777 Y28.222 F10800.000
G1 F8640
G1 X71.604 Y29.491 E-0.76000
G1 E-0.04000 F2100.00000
G1 Z3.000 F10800.000
G1 X64.132 Y26.106
G1 Z1.000
G1 E0.80000 F2100.00000
G1 F914.237
G1 X62.667 Y24.641 E0.25360
G1 F8640
G1 X64.132 Y26.106 E-0.47839
G1 E-0.32161 F2100.00000
G1 Z3.000 F10800.000
G1 X78.820 Y39.402
G1 Z1.000
G1 E0.80000 F2100.00000
G1 F914.237
G1 X67.196 Y27.778 E2.01217
G1 X66.682 Y27.838 E0.06335
G1 X66.022 Y27.787 E0.08105
G1 X65.731 Y27.705 E0.03691
G1 X81.227 Y43.201 E2.68237
G1 X81.050 Y43.831 E0.08015
G1 X80.763 Y44.129 E0.05061
G1 X61.941 Y25.307 E3.25823
G1 X61.813 Y25.349 E0.01645
G1 X61.214 Y25.972 E0.10586
G1 X76.698 Y41.457 E2.68041
M106 S255
;BEFORE_LAYER_CHANGE
G92 E0.0
;2


G1 F8640
G1 X74.371 Y39.129 E-0.76000
G1 E-0.04000 F2100.00000
G1 Z3.000 F10800.000
;AFTER_LAYER_CHANGE
;2
M104 S210 ; set temperature
G1 X57.120 Y59.509
G1 Z2.000
G1 E0.80000 F2100.00000
M204 S800
G1 F988.578
G1 X47.105 Y49.886 E1.57229
G1 X46.012 Y49.684 E0.12574
G1 X46.289 Y49.049 E0.07842
G1 X46.391 Y48.343 E0.08077
G1 X46.297 Y47.609 E0.08374
G1 X46.020 Y46.943 E0.08161
G1 X45.563 Y46.360 E0.08392
G1 X44.970 Y45.923 E0.08326
G1 X44.266 Y45.657 E0.08524
G1 X43.521 Y45.595 E0.08462
G1 X43.063 Y45.681 E0.05282
G1 X43.777 Y43.135 E0.29939
G1 X45.680 Y41.154 E0.31091
G1 X65.902 Y60.583 E3.17436
G1 X63.999 Y62.564 E0.31091
G1 X61.483 Y63.380 E0.29940
G1 X61.551 Y62.909 E0.05390
G1 X61.458 Y62.175 E0.08369
G1 X61.180 Y61.509 E0.08167
G1 X60.723 Y60.925 E0.08393
G1 X60.130 Y60.489 E0.08326
G1 X59.426 Y60.223 E0.08524
G1 X58.681 Y60.161 E0.08462
G1 X57.989 Y60.291 E0.07968
G1 X57.417 Y60.553 E0.07122
G1 X57.366 Y60.593 E0.00740
G1 X57.153 Y59.655 E0.10885
M204 S1000
G1 X56.293 Y59.976 F10800.000
M204 S800
G1 F988.578
G1 X46.671 Y50.731 E1.51048
G1 X45.583 Y50.530 E0.12521
G1 X45.205 Y50.426 E0.04439
G1 X44.905 Y50.321 E0.03601
G1 X44.494 Y50.118 E0.05184
G1 X44.621 Y49.839 E0.03459
G1 X44.710 Y49.789 E0.01163
G1 X45.011 Y49.521 E0.04562
G1 X45.244 Y49.193 E0.04549
G1 X45.404 Y48.806 E0.04747
G1 X45.472 Y48.335 E0.05386
G1 X45.410 Y47.846 E0.05579
G1 X45.227 Y47.408 E0.05377
G1 X44.923 Y47.019 E0.05589
G1 X44.531 Y46.731 E0.05498
G1 X44.063 Y46.554 E0.05665
G1 X43.568 Y46.512 E0.05625
G1 X43.107 Y46.599 E0.05307
G1 X42.731 Y46.772 E0.04683
G1 X42.408 Y47.021 E0.04615
G1 X42.157 Y47.325 E0.04475
G1 X42.106 Y47.424 E0.01252
G1 X41.804 Y47.577 E0.03836
G1 X41.666 Y47.444 E0.02168
G1 X41.698 Y47.174 E0.03073
G1 X42.963 Y42.669 E0.52976
G1 X45.655 Y39.867 E0.43982
G1 X67.189 Y60.557 E3.38048
G1 X64.497 Y63.359 E0.43982
G1 X60.050 Y64.802 E0.52927
G1 X59.778 Y64.845 E0.03109
G1 X59.639 Y64.713 E0.02179
G1 X59.781 Y64.405 E0.03833
G1 X59.870 Y64.355 E0.01163
G1 X60.171 Y64.087 E0.04562
G1 X60.404 Y63.759 E0.04549
G1 X60.564 Y63.372 E0.04747
G1 X60.632 Y62.901 E0.05386
G1 X60.570 Y62.412 E0.05574
G1 X60.387 Y61.974 E0.05382
G1 X60.083 Y61.585 E0.05590
G1 X59.691 Y61.297 E0.05498
G1 X59.223 Y61.120 E0.05665
G1 X58.728 Y61.078 E0.05625
G1 X58.267 Y61.165 E0.05307
G1 X57.891 Y61.337 E0.04683
G1 X57.568 Y61.586 E0.04615
G1 X57.317 Y61.891 E0.04475
G1 X57.266 Y61.990 E0.01252
G1 X56.993 Y62.126 E0.03464
G1 X56.774 Y61.724 E0.05184
G1 X56.644 Y61.393 E0.04033
G1 X56.537 Y61.055 E0.04012
G1 X56.326 Y60.123 E0.10818
M204 S1000
G1 X56.709 Y59.067 F10800.000
G1 F8640
G1 X53.966 Y57.828 E-0.76000
G1 E-0.04000 F2100.00000
G1 Z4.000 F10800.000
G1 X62.981 Y62.607
G1 Z2.000
G1 E0.80000 F2100.00000
G1 F977.167
G1 X63.735 Y61.852 E0.12216
G1 X64.936 Y60.602 E0.19853
G1 X64.297 Y59.988 E0.10153
G1 X62.142 Y62.143 E0.34904
G1 X62.123 Y61.997 E0.01683
G1 X61.788 Y61.194 E0.09965
G1 X63.633 Y59.350 E0.29873
G1 X62.968 Y58.712 E0.10550
G1 X61.223 Y60.457 E0.28266
G1 X60.479 Y59.898 E0.10654
G1 X62.304 Y58.073 E0.29554
G1 X61.640 Y57.435 E0.10550
G1 X59.528 Y59.546 E0.34195
G1 X58.646 Y59.473 E0.10142
G1 X58.220 Y59.553 E0.04968
G1 X60.975 Y56.797 E0.44634
G1 X60.311 Y56.159 E0.10550
G1 X57.522 Y58.948 E0.45175
G1 X56.858 Y58.310 E0.10550
G1 X59.647 Y55.520 E0.45175
G1 X58.983 Y54.882 E0.10550
G1 X56.193 Y57.671 E0.45175
G1 X55.529 Y57.033 E0.10550
G1 X58.318 Y54.244 E0.45175
G1 X57.654 Y53.606 E0.10550
G1 X54.865 Y56.395 E0.45175
G1 X54.200 Y55.757 E0.10550
G1 X56.990 Y52.967 E0.45175
G1 X56.325 Y52.329 E0.10550
G1 X53.536 Y55.118 E0.45175
G1 X52.872 Y54.480 E0.10550
G1 X55.661 Y51.691 E0.45175
G1 X54.997 Y51.053 E0.10550
G1 X52.208 Y53.842 E0.45175
G1 X51.543 Y53.204 E0.10550
G1 X54.333 Y50.414 E0.45175
G1 X53.668 Y49.776 E0.10550
G1 X50.879 Y52.565 E0.45175
G1 X50.215 Y51.927 E0.10550
G1 X53.004 Y49.138 E0.45175
G1 X52.340 Y48.500 E0.10550
G1 X49.550 Y51.289 E0.45175
G1 X48.886 Y50.651 E0.10550
G1 X51.675 Y47.861 E0.45175
M73 Q2 S39
G1 X51.011 Y47.223 E0.10550
G1 X48.222 Y50.012 E0.45175
M73 P2 R39
G1 X47.558 Y49.374 E0.10550
G1 X50.347 Y46.585 E0.45175
G1 X49.683 Y45.947 E0.10550
G1 X47.046 Y48.583 E0.42699
G1 X47.080 Y48.348 E0.02716
G1 X46.963 Y47.431 E0.10593
G1 X46.943 Y47.384 E0.00588
G1 X49.018 Y45.308 E0.33608
G1 X48.354 Y44.670 E0.10550
G1 X46.533 Y46.491 E0.29496
G1 X46.043 Y45.865 E0.09105
G1 X45.935 Y45.786 E0.01527
G1 X47.690 Y44.032 E0.28412
G1 X47.025 Y43.394 E0.10550
G1 X45.156 Y45.264 E0.30284
G1 X44.418 Y44.985 E0.09029
G1 X44.154 Y44.963 E0.03036
G1 X46.651 Y42.466 E0.40442
G1 F8640
G1 X44.324 Y44.793 E-0.76000
