; generated by PrusaSlicer 2.1.1+win64 on 2020-03-23 at 18:42:26 UTC

; 

; external perimeters extrusion width = 1.13mm
; perimeters extrusion width = 1.13mm
; infill extrusion width = 1.13mm
; solid infill extrusion width = 1.13mm
; top infill extrusion width = 1.00mm

M73 P0 R7
M73 Q0 S7
M201 X1000 Y1000 Z1000 E5000 ; sets maximum accelerations, mm/sec^2
M203 X200 Y200 Z12 E120 ; sets maximum feedrates, mm/sec
M204 P1250 R1250 T1250 ; sets acceleration (P, T) and retract acceleration (R), mm/sec^2
M205 X8.00 Y8.00 Z0.40 E4.50 ; sets the jerk limits, mm/sec
M205 S0 T0 ; sets the minimum extruding and travel feed rate, mm/sec
M107
M862.3 P "MK3S" ; printer model check
M862.1 P1 ; nozzle diameter check
M115 U3.8.1 ; tell printer latest fw version
G90 ; use absolute coordinates
M83 ; extruder relative mode
M104 S215 ; set extruder temp
M140 S60 ; set bed temp
M190 S60 ; wait for bed temp
M109 S215 ; wait for extruder temp
G28 W ; home all without mesh bed level
G80 ; mesh bed leveling
G1 Y-3.0 F1000.0 ; go outside print area
G92 E0.0
G1 X60.0 E9.0 F1000.0 ; intro line
M73 Q0 S7
M73 P0 R7
G1 X100.0 E12.5 F1000.0 ; intro line
G92 E0.0
M221 S95
G21 ; set units to millimeters
G90 ; use absolute coordinates
M83 ; use relative distances for extrusion
M900 K30 ; Filament gcode
;BEFORE_LAYER_CHANGE
G92 E0.0
;1


G1 E-0.80000 F2100.00000
G1 Z2.000 F10800.000
;AFTER_LAYER_CHANGE
;1
G1 X13.068 Y28.126
G1 Z1.000
G1 E0.80000 F2100.00000
M204 S1000
G1 F900
G1 X14.114 Y28.126 E0.11842
G1 X14.114 Y31.833 E0.41967
G1 X13.068 Y31.833 E0.11842
G1 X13.068 Y28.276 E0.40269
G1 F8640
G1 X14.114 Y28.126 E-0.24402
G1 X14.114 Y30.360 E-0.51598
G1 E-0.04000 F2100.00000
G1 Z3.000 F10800.000
G1 X12.157 Y27.215
G1 Z1.000
G1 E0.80000 F2100.00000
G1 F900
G1 X15.024 Y27.215 E0.32453
G1 X15.024 Y32.744 E0.62578
G1 X12.157 Y32.744 E0.32453
G1 X12.157 Y27.365 E0.60880
G1 X13.092 Y27.572 F10800.000
G1 F8640
G1 X15.024 Y27.215 E-0.66288
G1 X15.024 Y27.636 E-0.09712
G1 E-0.04000 F2100.00000
G1 Z3.000 F10800.000
G1 X18.390 Y28.126
G1 Z1.000
G1 E0.80000 F2100.00000
G1 F900
G1 X19.437 Y28.126 E0.11842
G1 X19.437 Y31.833 E0.41967
G1 X18.390 Y31.833 E0.11842
G1 X18.390 Y28.276 E0.40269
G1 F8640
G1 X19.437 Y28.126 E-0.24402
G1 X19.437 Y30.360 E-0.51598
G1 E-0.04000 F2100.00000
G1 Z3.000 F10800.000
G1 X17.480 Y27.215
G1 Z1.000
G1 E0.80000 F2100.00000
G1 F900
G1 X20.347 Y27.215 E0.32453
G1 X20.347 Y32.744 E0.62578
G1 X17.480 Y32.744 E0.32453
G1 X17.480 Y27.365 E0.60880
G1 X18.414 Y27.572 F10800.000
G1 F8640
G1 X20.347 Y27.215 E-0.66288
G1 X20.347 Y27.636 E-0.09712
G1 E-0.04000 F2100.00000
G1 Z3.000 F10800.000
G1 X18.390 Y18.527
G1 Z1.000
G1 E0.80000 F2100.00000
G1 F900
G1 X18.390 Y14.819 E0.41967
G1 X19.437 Y14.819 E0.11842
G1 X19.437 Y18.527 E0.41967
G1 X18.540 Y18.527 E0.10144
G1 F8640
G1 X18.407 Y15.238 E-0.76000
G1 E-0.04000 F2100.00000
G1 Z3.000 F10800.000
G1 X17.480 Y19.437
G1 Z1.000
G1 E0.80000 F2100.00000
G1 F900
G1 X17.480 Y13.909 E0.62578
G1 X20.347 Y13.909 E0.32453
G1 X20.347 Y19.437 E0.62578
G1 X17.630 Y19.437 E0.30755
G1 X17.639 Y18.450 F10800.000
G1 F8640
G1 X17.541 Y16.147 E-0.76000
G1 E-0.04000 F2100.00000
G1 Z3.000 F10800.000
G1 X14.114 Y18.527
G1 Z1.000
G1 E0.80000 F2100.00000
G1 F900
G1 X13.068 Y18.527 E0.11842
G1 X13.068 Y14.819 E0.41967
G1 X14.114 Y14.819 E0.11842
G1 X14.114 Y18.377 E0.40269
G1 F8640
G1 X13.068 Y18.527 E-0.24402
G1 X13.068 Y16.292 E-0.51598
G1 E-0.04000 F2100.00000
G1 Z3.000 F10800.000
G1 X15.024 Y19.437
G1 Z1.000
G1 E0.80000 F2100.00000
G1 F900
G1 X12.157 Y19.437 E0.32453
G1 X12.157 Y13.909 E0.62578
G1 X15.024 Y13.909 E0.32453
G1 X15.024 Y19.287 E0.60880
G1 X14.090 Y19.081 F10800.000
M106 S255
;BEFORE_LAYER_CHANGE
G92 E0.0
;2


G1 F8640
G1 X12.157 Y19.437 E-0.66288
G1 X12.157 Y19.017 E-0.09712
G1 E-0.04000 F2100.00000
G1 Z3.000 F10800.000
;AFTER_LAYER_CHANGE
;2
M104 S210 ; set temperature
G1 X13.068 Y28.126
G1 Z2.000
G1 E0.80000 F2100.00000
M204 S800
G1 F900
G1 X14.114 Y28.126 E0.11842
G1 X14.114 Y31.833 E0.41967
G1 X13.068 Y31.833 E0.11842
G1 X13.068 Y28.276 E0.40269
M204 S1000
G1 F8640
G1 X14.114 Y28.126 E-0.24402
G1 X14.114 Y30.360 E-0.51598
G1 E-0.04000 F2100.00000
G1 Z4.000 F10800.000
G1 X12.157 Y27.215
G1 Z2.000
G1 E0.80000 F2100.00000
M204 S800
G1 F900
G1 X15.024 Y27.215 E0.32453
G1 X15.024 Y32.744 E0.62578
G1 X12.157 Y32.744 E0.32453
G1 X12.157 Y27.365 E0.60880
M204 S1000
G1 X13.092 Y27.572 F10800.000
G1 F8640
G1 X15.024 Y27.215 E-0.66288
G1 X15.024 Y27.636 E-0.09712
G1 E-0.04000 F2100.00000
G1 Z4.000 F10800.000
G1 X18.390 Y28.126
G1 Z2.000
G1 E0.80000 F2100.00000
M204 S800
G1 F900
G1 X19.437 Y28.126 E0.11842
G1 X19.437 Y31.833 E0.41967
G1 X18.390 Y31.833 E0.11842
G1 X18.390 Y28.276 E0.40269
M204 S1000
G1 F8640
G1 X19.437 Y28.126 E-0.24402
G1 X19.437 Y30.360 E-0.51598
G1 E-0.04000 F2100.00000
G1 Z4.000 F10800.000
G1 X17.480 Y27.215
G1 Z2.000
G1 E0.80000 F2100.00000
M204 S800
G1 F900
G1 X20.347 Y27.215 E0.32453
G1 X20.347 Y32.744 E0.62578
G1 X17.480 Y32.744 E0.32453
G1 X17.480 Y27.365 E0.60880
M204 S1000
G1 X18.414 Y27.572 F10800.000
G1 F8640
G1 X20.347 Y27.215 E-0.66288
G1 X20.347 Y27.636 E-0.09712
G1 E-0.04000 F2100.00000
G1 Z4.000 F10800.000
G1 X18.390 Y18.527
G1 Z2.000
G1 E0.80000 F2100.00000
M204 S800
G1 F900
G1 X18.390 Y14.819 E0.41967
G1 X19.437 Y14.819 E0.11842
G1 X19.437 Y18.527 E0.41967
G1 X18.540 Y18.527 E0.10144
M204 S1000
G1 F8640
G1 X18.407 Y15.238 E-0.76000
G1 E-0.04000 F2100.00000
G1 Z4.000 F10800.000
G1 X17.480 Y19.437
G1 Z2.000
G1 E0.80000 F2100.00000
M204 S800
G1 F900
G1 X17.480 Y13.909 E0.62578
G1 X20.347 Y13.909 E0.32453
G1 X20.347 Y19.437 E0.62578
G1 X17.630 Y19.437 E0.30755
M204 S1000
G1 X17.639 Y18.450 F10800.000
G1 F8640
G1 X17.541 Y16.147 E-0.76000
G1 E-0.04000 F2100.00000
G1 Z4.000 F10800.000
G1 X14.114 Y18.527
G1 Z2.000
G1 E0.80000 F2100.00000
M204 S800
G1 F900
G1 X13.068 Y18.527 E0.11842
G1 X13.068 Y14.819 E0.41967
G1 X14.114 Y14.819 E0.11842
G1 X14.114 Y18.377 E0.40269
M204 S1000
G1 F8640
G1 X13.068 Y18.527 E-0.24402
G1 X13.068 Y16.292 E-0.51598
G1 E-0.04000 F2100.00000
G1 Z4.000 F10800.000
G1 X15.024 Y19.437
G1 Z2.000
G1 E0.80000 F2100.00000
M204 S800
G1 F900
G1 X12.157 Y19.437 E0.32453
G1 X12.157 Y13.909 E0.62578
G1 X15.024 Y13.909 E0.32453
G1 X15.024 Y19.287 E0.60880
M204 S1000
G1 X14.090 Y19.081 F10800.000
;BEFORE_LAYER_CHANGE
G92 E0.0
;3


G1 F8640
G1 X12.157 Y19.437 E-0.66288
G1 X12.157 Y19.017 E-0.09712
G1 E-0.04000 F2100.00000
G1 Z4.000 F10800.000
;AFTER_LAYER_CHANGE
;3
G1 X13.068 Y28.126
G1 Z3.000
G1 E0.80000 F2100.00000
M204 S800
G1 F900
G1 X14.114 Y28.126 E0.11842
G1 X14.114 Y31.833 E0.41967
G1 X13.068 Y31.833 E0.11842
G1 X13.068 Y28.276 E0.40269
M204 S1000
G1 F8640
G1 X14.114 Y28.126 E-0.24402
G1 X14.114 Y30.360 E-0.51598
G1 E-0.04000 F2100.00000
G1 Z5.000 F10800.000
G1 X12.157 Y27.215
G1 Z3.000
G1 E0.80000 F2100.00000
M204 S800
G1 F900
G1 X15.024 Y27.215 E0.32453
G1 X15.024 Y32.744 E0.62578
G1 X12.157 Y32.744 E0.32453
G1 X12.157 Y27.365 E0.60880
M204 S1000
G1 X13.092 Y27.572 F10800.000
G1 F8640
G1 X15.024 Y27.215 E-0.66288
G1 X15.024 Y27.636 E-0.09712
G1 E-0.04000 F2100.00000
G1 Z5.000 F10800.000
G1 X18.390 Y28.126
G1 Z3.000
G1 E0.80000 F2100.00000
M204 S800
G1 F900
G1 X19.437 Y28.126 E0.11842
G1 X19.437 Y31.833 E0.41967
G1 X18.390 Y31.833 E0.11842
G1 X18.390 Y28.276 E0.40269
M204 S1000
G1 F8640
G1 X19.437 Y28.126 E-0.24402
G1 X19.437 Y30.360 E-0.51598
G1 E-0.04000 F2100.00000
G1 Z5.000 F10800.000
G1 X17.480 Y27.215
G1 Z3.000
G1 E0.80000 F2100.00000
M204 S800
G1 F900
G1 X20.347 Y27.215 E0.32453
G1 X20.347 Y32.744 E0.62578
G1 X17.480 Y32.744 E0.32453
G1 X17.480 Y27.365 E0.60880
M204 S1000
G1 X18.414 Y27.572 F10800.000
G1 F8640
G1 X20.347 Y27.215 E-0.66288
G1 X20.347 Y27.636 E-0.09712
G1 E-0.04000 F2100.00000
G1 Z5.000 F10800.000
G1 X18.390 Y18.527
G1 Z3.000
G1 E0.80000 F2100.00000
M204 S800
G1 F900
G1 X18.390 Y14.819 E0.41967
G1 X19.437 Y14.819 E0.11842
G1 X19.437 Y18.527 E0.41967
G1 X18.540 Y18.527 E0.10144
M204 S1000
G1 F8640
G1 X18.407 Y15.238 E-0.76000
G1 E-0.04000 F2100.00000
G1 Z5.000 F10800.000
G1 X17.480 Y19.437
G1 Z3.000
G1 E0.80000 F2100.00000
M204 S800
G1 F900
G1 X17.480 Y13.909 E0.62578
G1 X20.347 Y13.909 E0.32453
G1 X20.347 Y19.437 E0.62578
G1 X17.630 Y19.437 E0.30755
M204 S1000
G1 X17.639 Y18.450 F10800.000
G1 F8640
G1 X17.541 Y16.147 E-0.76000
G1 E-0.04000 F2100.00000
G1 Z5.000 F10800.000
G1 X14.114 Y18.527
G1 Z3.000
G1 E0.80000 F2100.00000
M204 S800
G1 F900
G1 X13.068 Y18.527 E0.11842
G1 X13.068 Y14.819 E0.41967
G1 X14.114 Y14.819 E0.11842
G1 X14.114 Y18.377 E0.40269
M204 S1000
G1 F8640
G1 X13.068 Y18.527 E-0.24402
G1 X13.068 Y16.292 E-0.51598
G1 E-0.04000 F2100.00000
G1 Z5.000 F10800.000
G1 X15.024 Y19.437
G1 Z3.000
G1 E0.80000 F2100.00000
M204 S800
G1 F900
G1 X12.157 Y19.437 E0.32453
G1 X12.157 Y13.909 E0.62578
G1 X15.024 Y13.909 E0.32453
G1 X15.024 Y19.287 E0.60880
M204 S1000
G1 X14.090 Y19.081 F10800.000
;BEFORE_LAYER_CHANGE
G92 E0.0
;4


G1 F8640
G1 X12.157 Y19.437 E-0.66288
G1 X12.157 Y19.017 E-0.09712
G1 E-0.04000 F2100.00000
G1 Z5.000 F10800.000
;AFTER_LAYER_CHANGE
;4
G1 X13.068 Y28.126
G1 Z4.000
G1 E0.80000 F2100.00000
M204 S800
G1 F900
G1 X14.114 Y28.126 E0.11842
G1 X14.114 Y31.833 E0.41967
G1 X13.068 Y31.833 E0.11842
G1 X13.068 Y28.276 E0.40269
M204 S1000
G1 F8640
G1 X14.114 Y28.126 E-0.24402
G1 X14.114 Y30.360 E-0.51598
G1 E-0.04000 F2100.00000
G1 Z6.000 F10800.000
G1 X12.157 Y27.215
G1 Z4.000
G1 E0.80000 F2100.00000
M204 S800
G1 F900
G1 X15.024 Y27.215 E0.32453
G1 X15.024 Y32.744 E0.62578
G1 X12.157 Y32.744 E0.32453
G1 X12.157 Y27.365 E0.60880
M204 S1000
G1 X13.092 Y27.572 F10800.000
G1 F8640
G1 X15.024 Y27.215 E-0.66288
G1 X15.024 Y27.636 E-0.09712
G1 E-0.04000 F2100.00000
G1 Z6.000 F10800.000
G1 X18.390 Y28.126
G1 Z4.000
G1 E0.80000 F2100.00000
M204 S800
G1 F900
G1 X19.437 Y28.126 E0.11842
G1 X19.437 Y31.833 E0.41967
G1 X18.390 Y31.833 E0.11842
G1 X18.390 Y28.276 E0.40269
M204 S1000
G1 F8640
G1 X19.437 Y28.126 E-0.24402
G1 X19.437 Y30.360 E-0.51598
G1 E-0.04000 F2100.00000
G1 Z6.000 F10800.000
G1 X17.480 Y27.215
G1 Z4.000
G1 E0.80000 F2100.00000
M204 S800
G1 F900
G1 X20.347 Y27.215 E0.32453
G1 X20.347 Y32.744 E0.62578
G1 X17.480 Y32.744 E0.32453
G1 X17.480 Y27.365 E0.60880
M204 S1000
G1 X18.414 Y27.572 F10800.000
G1 F8640
G1 X20.347 Y27.215 E-0.66288
G1 X20.347 Y27.636 E-0.09712
G1 E-0.04000 F2100.00000
G1 Z6.000 F10800.000
G1 X18.390 Y18.527
G1 Z4.000
G1 E0.80000 F2100.00000
M204 S800
G1 F900
G1 X18.390 Y14.819 E0.41967
G1 X19.437 Y14.819 E0.11842
G1 X19.437 Y18.527 E0.41967
G1 X18.540 Y18.527 E0.10144
M204 S1000
G1 F8640
G1 X18.407 Y15.238 E-0.76000
G1 E-0.04000 F2100.00000
G1 Z6.000 F10800.000
G1 X17.480 Y19.437
G1 Z4.000
G1 E0.80000 F2100.00000
M204 S800
G1 F900
G1 X17.480 Y13.909 E0.62578
G1 X20.347 Y13.909 E0.32453
G1 X20.347 Y19.437 E0.62578
G1 X17.630 Y19.437 E0.30755
M204 S1000
G1 X17.639 Y18.450 F10800.000
G1 F8640
G1 X17.541 Y16.147 E-0.76000
G1 E-0.04000 F2100.00000
G1 Z6.000 F10800.000
G1 X14.114 Y18.527
G1 Z4.000
G1 E0.80000 F2100.00000
M204 S800
G1 F900
G1 X13.068 Y18.527 E0.11842
G1 X13.068 Y14.819 E0.41967
G1 X14.114 Y14.819 E0.11842
G1 X14.114 Y18.377 E0.40269
M204 S1000
G1 F8640
G1 X13.068 Y18.527 E-0.24402
G1 X13.068 Y16.292 E-0.51598
G1 E-0.04000 F2100.00000
G1 Z6.000 F10800.000
G1 X15.024 Y19.437
G1 Z4.000
G1 E0.80000 F2100.00000
M204 S800
G1 F900
G1 X12.157 Y19.437 E0.32453
G1 X12.157 Y13.909 E0.62578
G1 X15.024 Y13.909 E0.32453
G1 X15.024 Y19.287 E0.60880
M204 S1000
G1 X14.090 Y19.081 F10800.000
;BEFORE_LAYER_CHANGE
G92 E0.0
;5


G1 F8640
G1 X12.157 Y19.437 E-0.66288
G1 X12.157 Y19.017 E-0.09712
G1 E-0.04000 F2100.00000
G1 Z6.000 F10800.000
;AFTER_LAYER_CHANGE
;5
G1 X13.068 Y28.126
G1 Z5.000
G1 E0.80000 F2100.00000
M204 S800
G1 F900
G1 X14.114 Y28.126 E0.11842
G1 X14.114 Y31.833 E0.41967
G1 X13.068 Y31.833 E0.11842
G1 X13.068 Y28.276 E0.40269
M204 S1000
G1 F8640
G1 X14.114 Y28.126 E-0.24402
G1 X14.114 Y30.360 E-0.51598
G1 E-0.04000 F2100.00000
G1 Z7.000 F10800.000
G1 X12.157 Y27.215
G1 Z5.000
G1 E0.80000 F2100.00000
M204 S800
G1 F900
G1 X15.024 Y27.215 E0.32453
G1 X15.024 Y32.744 E0.62578
G1 X12.157 Y32.744 E0.32453
G1 X12.157 Y27.365 E0.60880
M204 S1000
G1 X13.092 Y27.572 F10800.000
G1 F8640
G1 X15.024 Y27.215 E-0.66288
G1 X15.024 Y27.636 E-0.09712
G1 E-0.04000 F2100.00000
G1 Z7.000 F10800.000
G1 X18.390 Y28.126
G1 Z5.000
G1 E0.80000 F2100.00000
M204 S800
G1 F900
G1 X19.437 Y28.126 E0.11842
G1 X19.437 Y31.833 E0.41967
G1 X18.390 Y31.833 E0.11842
G1 X18.390 Y28.276 E0.40269
M204 S1000
G1 F8640
G1 X19.437 Y28.126 E-0.24402
G1 X19.437 Y30.360 E-0.51598
G1 E-0.04000 F2100.00000
G1 Z7.000 F10800.000
G1 X17.480 Y27.215
G1 Z5.000
G1 E0.80000 F2100.00000
M204 S800
G1 F900
G1 X20.347 Y27.215 E0.32453
G1 X20.347 Y32.744 E0.62578
G1 X17.480 Y32.744 E0.32453
G1 X17.480 Y27.365 E0.60880
M204 S1000
G1 X18.414 Y27.572 F10800.000
G1 F8640
G1 X20.347 Y27.215 E-0.66288
G1 X20.347 Y27.636 E-0.09712
G1 E-0.04000 F2100.00000
G1 Z7.000 F10800.000
G1 X18.390 Y18.527
G1 Z5.000
G1 E0.80000 F2100.00000
M204 S800
G1 F900
G1 X18.390 Y14.819 E0.41967
G1 X19.437 Y14.819 E0.11842
G1 X19.437 Y18.527 E0.41967
M73 Q15 S6
G1 X18.540 Y18.527 E0.10144
M204 S1000
G1 F8640
G1 X18.407 Y15.238 E-0.76000
G1 E-0.04000 F2100.00000
G1 Z7.000 F10800.000
G1 X17.480 Y19.437
G1 Z5.000
G1 E0.80000 F2100.00000
M73 P16 R6
M204 S800
G1 F900
G1 X17.480 Y13.909 E0.62578
G1 X20.347 Y13.909 E0.32453
G1 X20.347 Y19.437 E0.62578
G1 X17.630 Y19.437 E0.30755
M204 S1000
G1 X17.639 Y18.450 F10800.000
G1 F8640
G1 X17.541 Y16.147 E-0.76000
G1 E-0.04000 F2100.00000
G1 Z7.000 F10800.000
G1 X14.114 Y18.527
G1 Z5.000
G1 E0.80000 F2100.00000
M204 S800
G1 F900
G1 X13.068 Y18.527 E0.11842
G1 X13.068 Y14.819 E0.41967
G1 X14.114 Y14.819 E0.11842
G1 X14.114 Y18.377 E0.40269
M204 S1000
G1 F8640
G1 X13.068 Y18.527 E-0.24402
G1 X13.068 Y16.292 E-0.51598
G1 E-0.04000 F2100.00000
G1 Z7.000 F10800.000
G1 X15.024 Y19.437
G1 Z5.000
G1 E0.80000 F2100.00000
M204 S800
G1 F900
G1 X12.157 Y19.437 E0.32453
G1 X12.157 Y13.909 E0.62578
G1 X15.024 Y13.909 E0.32453
G1 X15.024 Y19.287 E0.60880
M204 S1000
G1 X14.090 Y19.081 F10800.000
;BEFORE_LAYER_CHANGE
G92 E0.0
;6


G1 F8640
G1 X12.157 Y19.437 E-0.66288
G1 X12.157 Y19.017 E-0.09712
G1 E-0.04000 F2100.00000
G1 Z7.000 F10800.000
;AFTER_LAYER_CHANGE
;6
G1 X13.068 Y28.126
G1 Z6.000
G1 E0.80000 F2100.00000
M204 S800
G1 F900
G1 X14.114 Y28.126 E0.11842
G1 X14.114 Y31.833 E0.41967
G1 X13.068 Y31.833 E0.11842
G1 X13.068 Y28.276 E0.40269
M204 S1000
G1 F8640
G1 X14.114 Y28.126 E-0.24402
G1 X14.114 Y30.360 E-0.51598
G1 E-0.04000 F2100.00000
G1 Z8.000 F10800.000
G1 X12.157 Y27.215
G1 Z6.000
G1 E0.80000 F2100.00000
M204 S800
G1 F900
G1 X15.024 Y27.215 E0.32453
G1 X15.024 Y32.744 E0.62578
G1 X12.157 Y32.744 E0.32453
G1 X12.157 Y27.365 E0.60880
M204 S1000
G1 X13.092 Y27.572 F10800.000
G1 F8640
G1 X15.024 Y27.215 E-0.66288
G1 X15.024 Y27.636 E-0.09712
G1 E-0.04000 F2100.00000
G1 Z8.000 F10800.000
G1 X18.390 Y28.126
G1 Z6.000
G1 E0.80000 F2100.00000
M204 S800
G1 F900
G1 X19.437 Y28.126 E0.11842
G1 X19.437 Y31.833 E0.41967
G1 X18.390 Y31.833 E0.11842
G1 X18.390 Y28.276 E0.40269
M204 S1000
G1 F8640
G1 X19.437 Y28.126 E-0.24402
G1 X19.437 Y30.360 E-0.51598
G1 E-0.04000 F2100.00000
G1 Z8.000 F10800.000
G1 X17.480 Y27.215
G1 Z6.000
G1 E0.80000 F2100.00000
M204 S800
G1 F900
G1 X20.347 Y27.215 E0.32453
G1 X20.347 Y32.744 E0.62578
G1 X17.480 Y32.744 E0.32453
G1 X17.480 Y27.365 E0.60880
M204 S1000
G1 X18.414 Y27.572 F10800.000
G1 F8640
G1 X20.347 Y27.215 E-0.66288
G1 X20.347 Y27.636 E-0.09712
G1 E-0.04000 F2100.00000
G1 Z8.000 F10800.000
G1 X18.390 Y18.527
G1 Z6.000
G1 E0.80000 F2100.00000
M204 S800
G1 F900
G1 X18.390 Y14.819 E0.41967
G1 X19.437 Y14.819 E0.11842
G1 X19.437 Y18.527 E0.41967
G1 X18.540 Y18.527 E0.10144
M204 S1000
G1 F8640
G1 X18.407 Y15.238 E-0.76000
G1 E-0.04000 F2100.00000
G1 Z8.000 F10800.000
G1 X17.480 Y19.437
G1 Z6.000
G1 E0.80000 F2100.00000
M204 S800
G1 F900
G1 X17.480 Y13.909 E0.62578
G1 X20.347 Y13.909 E0.32453
G1 X20.347 Y19.437 E0.62578
G1 X17.630 Y19.437 E0.30755
M204 S1000
G1 X17.639 Y18.450 F10800.000
G1 F8640
