; generated by PrusaSlicer 2.1.1+win64 on 2020-03-23 at 17:36:30 UTC

; 

; external perimeters extrusion width = 1.13mm
; perimeters extrusion width = 1.13mm
; infill extrusion width = 1.13mm
; solid infill extrusion width = 1.13mm
; top infill extrusion width = 1.00mm

M73 P0 R11
M73 Q0 S11
M201 X1000 Y1000 Z1000 E5000 ; sets maximum accelerations, mm/sec^2
M203 X200 Y200 Z12 E120 ; sets maximum feedrates, mm/sec
M204 P1250 R1250 T1250 ; sets acceleration (P, T) and retract acceleration (R), mm/sec^2
M205 X8.00 Y8.00 Z0.40 E4.50 ; sets the jerk limits, mm/sec
M205 S0 T0 ; sets the minimum extruding and travel feed rate, mm/sec
M107
M862.3 P "MK3S" ; printer model check
M862.1 P1 ; nozzle diameter check
M115 U3.8.1 ; tell printer latest fw version
G90 ; use absolute coordinates
M83 ; extruder relative mode
M104 S215 ; set extruder temp
M140 S60 ; set bed temp
M190 S60 ; wait for bed temp
M109 S215 ; wait for extruder temp
G28 W ; home all without mesh bed level
G80 ; mesh bed leveling
G1 Y-3.0 F1000.0 ; go outside print area
G92 E0.0
G1 X60.0 E9.0 F1000.0 ; intro line
M73 Q0 S11
M73 P0 R11
G1 X100.0 E12.5 F1000.0 ; intro line
G92 E0.0
M221 S95
G21 ; set units to millimeters
G90 ; use absolute coordinates
M83 ; use relative distances for extrusion
M900 K30 ; Filament gcode
;BEFORE_LAYER_CHANGE
G92 E0.0
;1


G1 E-0.80000 F2100.00000
G1 Z2.000 F10800.000
;AFTER_LAYER_CHANGE
;1
G1 X29.303 Y20.006
G1 Z1.000
G1 E0.80000 F2100.00000
M204 S1000
G1 F988.578
G1 X39.697 Y30.399 E1.66384
G1 X29.303 Y40.793 E1.66384
G1 X18.910 Y30.399 E1.66384
G1 X29.197 Y20.112 E1.64687
G1 F8640
G1 X31.548 Y22.415 E-0.76000
G1 E-0.04000 F2100.00000
G1 Z3.000 F10800.000
G1 X29.303 Y18.718
G1 Z1.000
G1 E0.80000 F2100.00000
G1 F988.578
G1 X40.984 Y30.399 E1.86996
G1 X29.303 Y42.080 E1.86996
G1 X17.623 Y30.399 E1.86996
G1 X29.197 Y18.824 E1.85298
G1 X29.803 Y19.584 F10800.000
G1 F8640
G1 X31.546 Y21.131 E-0.76000
G1 E-0.04000 F2100.00000
G1 Z3.000 F10800.000
G1 X19.600 Y30.096
G1 Z1.000
G1 E0.80000 F2100.00000
G1 F947.815
G1 X29.317 Y39.813 E1.62255
G1 X29.989 Y39.142 E0.11211
G1 X20.561 Y29.714 E1.57418
G1 X21.232 Y29.043 E0.11211
G1 X30.660 Y38.470 E1.57418
G1 X31.332 Y37.799 E0.11211
G1 X21.904 Y28.371 E1.57418
G1 X22.575 Y27.700 E0.11211
G1 X32.003 Y37.127 E1.57418
G1 X32.674 Y36.456 E0.11211
G1 X23.247 Y27.028 E1.57418
G1 X23.918 Y26.357 E0.11211
G1 X33.346 Y35.785 E1.57418
G1 X34.017 Y35.113 E0.11211
G1 X24.590 Y25.685 E1.57418
G1 X25.261 Y25.014 E0.11211
G1 X34.689 Y34.442 E1.57418
G1 X35.360 Y33.770 E0.11211
G1 X25.932 Y24.343 E1.57418
G1 X26.604 Y23.671 E0.11211
G1 X36.032 Y33.099 E1.57418
G1 X36.703 Y32.427 E0.11211
G1 X27.275 Y23.000 E1.57418
G1 X27.947 Y22.328 E0.11211
G1 X37.374 Y31.756 E1.57418
G1 X38.046 Y31.085 E0.11211
G1 X28.618 Y21.657 E1.57418
G1 X29.290 Y20.985 E0.11211
G1 X39.007 Y30.703 E1.62255
M106 S255
;BEFORE_LAYER_CHANGE
G92 E0.0
;2


G1 F8640
G1 X36.680 Y28.375 E-0.76000
G1 E-0.04000 F2100.00000
G1 Z3.000 F10800.000
;AFTER_LAYER_CHANGE
;2
M104 S210 ; set temperature
G1 X40.697 Y30.399
G1 Z2.000
G1 E0.80000 F2100.00000
M204 S800
G1 F988.578
G1 X29.303 Y41.793 E1.82393
G1 X17.910 Y30.399 E1.82393
G1 X29.303 Y19.006 E1.82393
G1 X40.591 Y30.293 E1.80695
M204 S1000
G1 X41.234 Y29.649 F10800.000
M204 S800
G1 F988.578
G1 X41.984 Y30.399 E0.12004
G1 X29.303 Y43.080 E2.03004
G1 X16.623 Y30.399 E2.03004
G1 X29.303 Y17.718 E2.03004
G1 X41.128 Y29.543 E1.89303
M204 S1000
G1 X41.245 Y30.649 F10800.000
G1 F8640
G1 X41.984 Y30.399 E-0.27949
G1 X40.513 Y31.871 E-0.48051
G1 E-0.04000 F2100.00000
G1 Z4.000 F10800.000
G1 X28.991 Y41.091
G1 Z2.000
G1 E0.80000 F2100.00000
G1 F1328.93
G1 X39.695 Y30.387 E1.27473
G1 X39.003 Y29.695 E0.08240
G1 X28.599 Y40.099 E1.23895
G1 X27.907 Y39.407 E0.08240
G1 X38.311 Y29.003 E1.23895
G1 X37.619 Y28.311 E0.08240
G1 X27.215 Y38.715 E1.23895
G1 X26.523 Y38.023 E0.08240
G1 X36.927 Y27.619 E1.23895
G1 X36.235 Y26.927 E0.08240
G1 X25.831 Y37.331 E1.23895
G1 X25.140 Y36.639 E0.08240
G1 X35.543 Y26.235 E1.23895
G1 X34.851 Y25.543 E0.08240
G1 X24.448 Y35.947 E1.23895
G1 X23.756 Y35.255 E0.08240
G1 X34.159 Y24.851 E1.23895
G1 X33.467 Y24.159 E0.08240
G1 X23.064 Y34.563 E1.23895
G1 X22.372 Y33.871 E0.08240
G1 X32.775 Y23.467 E1.23895
G1 X32.083 Y22.775 E0.08240
G1 X21.680 Y33.179 E1.23895
G1 X20.988 Y32.487 E0.08240
G1 X31.391 Y22.084 E1.23895
G1 X30.699 Y21.392 E0.08240
G1 X20.296 Y31.795 E1.23895
G1 X19.604 Y31.103 E0.08240
G1 X30.007 Y20.700 E1.23895
G1 X29.315 Y20.008 E0.08240
G1 X18.611 Y30.712 E1.27473
;BEFORE_LAYER_CHANGE
G92 E0.0
;3


G1 F8640
G1 X20.939 Y28.384 E-0.76000
G1 E-0.04000 F2100.00000
G1 Z4.000 F10800.000
;AFTER_LAYER_CHANGE
;3
G1 X30.482 Y20.194
G1 Z3.000
G1 E0.80000 F2100.00000
M204 S800
G1 F988.578
G1 X32.966 Y22.678 E0.39765
G1 X34.539 Y21.893 E0.19896
G1 X33.753 Y23.465 E0.19890
G1 X36.238 Y25.950 E0.39776
G1 X37.810 Y25.164 E0.19901
G1 X37.024 Y26.736 E0.19901
G1 X39.509 Y29.221 E0.39776
G1 X40.182 Y28.884 E0.08518
G1 X41.697 Y30.399 E0.24254
G1 X40.182 Y31.914 E0.24254
G1 X39.509 Y31.578 E0.08518
G1 X37.025 Y34.062 E0.39765
G1 X37.809 Y35.635 E0.19896
G1 X36.238 Y34.849 E0.19890
G1 X33.753 Y37.333 E0.39776
G1 X34.539 Y38.906 E0.19901
G1 X32.967 Y38.120 E0.19901
G1 X30.482 Y40.604 E0.39776
G1 X30.819 Y41.278 E0.08518
G1 X29.303 Y42.793 E0.24254
G1 X27.788 Y41.277 E0.24257
G1 X28.124 Y40.604 E0.08520
G1 X25.640 Y38.120 E0.39765
G1 X24.068 Y38.906 E0.19901
G1 X24.854 Y37.334 E0.19901
G1 X22.369 Y34.849 E0.39776
G1 X20.797 Y35.635 E0.19901
G1 X21.583 Y34.063 E0.19901
G1 X19.098 Y31.578 E0.39775
G1 X18.425 Y31.914 E0.08518
G1 X16.910 Y30.399 E0.24255
G1 X18.425 Y28.884 E0.24254
G1 X19.098 Y29.221 E0.08518
G1 X21.583 Y26.736 E0.39776
G1 X20.797 Y25.164 E0.19901
G1 X22.369 Y25.950 E0.19901
G1 X24.854 Y23.465 E0.39776
G1 X24.068 Y21.893 E0.19901
G1 X25.640 Y22.679 E0.19901
G1 X28.125 Y20.194 E0.39776
G1 X27.788 Y19.521 E0.08518
G1 X29.303 Y18.006 E0.24254
G1 X30.819 Y19.521 E0.24254
G1 X30.549 Y20.060 E0.06820
M204 S1000
G1 F8640
G1 X32.782 Y22.478 E-0.76000
G1 E-0.04000 F2100.00000
G1 Z5.000 F10800.000
G1 X31.590 Y20.014
G1 Z3.000
G1 E0.80000 F2100.00000
M204 S800
G1 F988.578
G1 X33.146 Y21.571 E0.24917
G1 X35.210 Y20.541 E0.26107
G1 X35.892 Y21.223 E0.10915
G1 X34.861 Y23.285 E0.26099
G1 X36.417 Y24.842 E0.24921
G1 X38.479 Y23.811 E0.26094
G1 X39.163 Y24.494 E0.10936
G1 X38.132 Y26.556 E0.26098
G1 X39.688 Y28.113 E0.24921
G1 X41.750 Y27.082 E0.26093
G1 X42.055 Y27.387 E0.04877
G1 X40.667 Y28.082 E0.17571
G1 X42.984 Y30.399 E0.37095
G1 X40.667 Y32.716 E0.37095
G1 X42.055 Y33.412 E0.17571
G1 X41.750 Y33.716 E0.04877
G1 X39.688 Y32.686 E0.26093
G1 X38.132 Y34.242 E0.24917
G1 X39.162 Y36.306 E0.26107
G1 X38.480 Y36.988 E0.10915
G1 X36.417 Y35.957 E0.26099
G1 X34.861 Y37.513 E0.24921
G1 X35.891 Y39.575 E0.26094
G1 X35.209 Y40.259 E0.10936
G1 X33.146 Y39.228 E0.26098
G1 X31.590 Y40.784 E0.24921
G1 X32.620 Y42.846 E0.26093
G1 X32.316 Y43.151 E0.04877
G1 X31.621 Y41.763 E0.17571
G1 X29.303 Y44.080 E0.37095
G1 X26.986 Y41.763 E0.37095
G1 X26.291 Y43.151 E0.17574
G1 X25.987 Y42.848 E0.04857
G1 X27.017 Y40.784 E0.26106
G1 X25.460 Y39.228 E0.24917
G1 X23.399 Y40.258 E0.26094
G1 X22.715 Y39.575 E0.10936
G1 X23.746 Y37.513 E0.26098
G1 X22.189 Y35.957 E0.24921
G1 X20.127 Y36.987 E0.26094
G1 X19.444 Y36.304 E0.10936
G1 X20.475 Y34.242 E0.26098
G1 X18.918 Y32.686 E0.24921
G1 X16.858 Y33.715 E0.26077
G1 X16.553 Y33.411 E0.04877
G1 X17.940 Y32.716 E0.17561
G1 X15.623 Y30.399 E0.37095
G1 X17.940 Y28.082 E0.37095
M73 Q9 S10
G1 X16.552 Y27.387 E0.17571
M73 P9 R10
G1 X16.857 Y27.082 E0.04877
G1 X18.918 Y28.113 E0.26093
G1 X20.475 Y26.556 E0.24921
G1 X19.444 Y24.494 E0.26098
G1 X20.127 Y23.811 E0.10936
G1 X22.189 Y24.842 E0.26094
G1 X23.746 Y23.285 E0.24921
G1 X22.715 Y21.223 E0.26098
G1 X23.399 Y20.540 E0.10936
G1 X25.460 Y21.571 E0.26094
G1 X27.017 Y20.014 E0.24921
G1 X25.986 Y17.953 E0.26092
G1 X26.291 Y17.648 E0.04879
G1 X26.986 Y19.036 E0.17571
G1 X29.303 Y16.718 E0.37095
G1 X31.621 Y19.036 E0.37095
G1 X32.316 Y17.648 E0.17567
G1 X32.620 Y17.953 E0.04878
G1 X31.657 Y19.880 E0.24389
M204 S1000
G1 X31.006 Y20.826 F10800.000
G1 F8640
G1 X33.146 Y21.571 E-0.52025
G1 X34.075 Y21.107 E-0.23975
G1 E-0.04000 F2100.00000
G1 Z5.000 F10800.000
G1 X30.057 Y19.657
G1 Z3.000
G1 E0.80000 F2100.00000
G1 F1107.1
G1 X29.294 Y18.893 E0.10916
G1 X28.719 Y19.468 E0.08217
G1 X40.235 Y30.984 E1.64623
G1 X40.059 Y31.160 E0.02513
G1 X39.386 Y30.823 E0.07606
G1 X39.155 Y31.054 E0.03299
G1 X28.649 Y20.547 E1.50192
G1 X28.074 Y21.122 E0.08217
G1 X38.581 Y31.629 E1.50192
G1 X38.006 Y32.204 E0.08217
G1 X27.499 Y21.697 E1.50192
G1 X26.924 Y22.272 E0.08217
G1 X28.515 Y23.863 E0.22741
G1 X27.940 Y24.437 E0.08217
G1 X26.349 Y22.847 E0.22741
G1 X25.775 Y23.421 E0.08217
G1 X27.365 Y25.012 E0.22741
G1 X26.791 Y25.587 E0.08217
G1 X25.200 Y23.996 E0.22741
G1 X24.625 Y24.571 E0.08217
G1 X26.216 Y26.162 E0.22741
G1 X25.641 Y26.737 E0.08217
G1 X24.050 Y25.146 E0.22741
G1 X23.475 Y25.721 E0.08217
G1 X25.066 Y27.312 E0.22741
G1 X24.491 Y27.886 E0.08217
G1 X22.900 Y26.296 E0.22741
G1 X22.492 Y26.704 E0.05842
G1 X22.184 Y26.550 E0.03483
G1 X22.338 Y26.858 E0.03483
G1 X22.326 Y26.870 E0.00172
G1 X23.916 Y28.461 E0.22741
G1 X23.342 Y29.036 E0.08217
G1 X21.751 Y27.445 E0.22741
G1 X21.176 Y28.020 E0.08217
G1 X23.017 Y29.861 E0.26313
G1 F8640
G1 X21.176 Y28.020 E-0.60109
G1 X21.663 Y27.534 E-0.15891
G1 E-0.04000 F2100.00000
G1 Z5.000 F10800.000
G1 X18.561 Y31.153
G1 Z3.000
G1 E0.80000 F2100.00000
G1 F1107.1
G1 X17.547 Y30.140 E0.14489
G1 F8640
G1 X18.561 Y31.153 E-0.33098
G1 E-0.46902 F2100.00000
G1 Z5.000 F10800.000
G1 X29.608 Y36.797
G1 Z3.000
G1 E0.80000 F2100.00000
G1 F1391.84
G1 X23.206 Y30.395 E0.72797
G1 X23.883 Y29.718 E0.07697
G1 X29.985 Y35.820 E0.69380
G1 X30.662 Y35.143 E0.07697
G1 X24.560 Y29.041 E0.69380
G1 X25.237 Y28.364 E0.07697
G1 X31.339 Y34.466 E0.69380
G1 X32.016 Y33.789 E0.07697
G1 X25.914 Y27.687 E0.69380
G1 X26.591 Y27.010 E0.07697
G1 X32.693 Y33.112 E0.69380
G1 X33.370 Y32.435 E0.07697
G1 X27.268 Y26.333 E0.69380
G1 X27.630 Y25.971 E0.04114
G1 X27.945 Y25.656 E0.03584
G1 X34.047 Y31.758 E0.69380
G1 X34.377 Y31.428 E0.03752
G1 X34.724 Y31.081 E0.03945
G1 X28.622 Y24.979 E0.69380
G1 X29.299 Y24.302 E0.07697
G1 X35.701 Y30.704 E0.72797
G1 F8640
G1 X33.374 Y28.377 E-0.76000
G1 E-0.04000 F2100.00000
G1 Z5.000 F10800.000
G1 X37.681 Y33.028
G1 Z3.000
G1 E0.80000 F2100.00000
G1 F1107.1
G1 X35.840 Y31.188 E0.26313
G1 X35.265 Y31.762 E0.08217
G1 X36.856 Y33.353 E0.22741
G1 X36.281 Y33.928 E0.08217
G1 X34.690 Y32.337 E0.22741
G1 X34.343 Y32.685 E0.04964
G1 X34.116 Y32.912 E0.03253
G1 X35.706 Y34.503 E0.22741
G1 X35.132 Y35.078 E0.08217
G1 X33.541 Y33.487 E0.22741
G1 X33.289 Y33.739 E0.03605
G1 X32.966 Y34.062 E0.04612
G1 X34.557 Y35.653 E0.22741
G1 X33.982 Y36.227 E0.08217
G1 X32.391 Y34.637 E0.22741
G1 X31.816 Y35.211 E0.08217
G1 X33.407 Y36.802 E0.22741
G1 X32.998 Y37.211 E0.05842
G1 X33.152 Y37.519 E0.03483
G1 X32.844 Y37.365 E0.03483
G1 X32.832 Y37.377 E0.00172
G1 X31.241 Y35.786 E0.22741
G1 X30.667 Y36.361 E0.08217
G1 X32.257 Y37.952 E0.22741
G1 X31.683 Y38.527 E0.08217
G1 X29.842 Y36.686 E0.26313
G1 F8640
G1 X31.683 Y38.527 E-0.60109
G1 X32.169 Y38.040 E-0.15891
G1 E-0.04000 F2100.00000
G1 Z5.000 F10800.000
G1 X31.358 Y39.352
G1 Z3.000
G1 E0.80000 F2100.00000
G1 F1107.1
G1 X20.601 Y28.595 E1.53764
G1 X20.026 Y29.170 E0.08217
G1 X30.533 Y39.676 E1.50192
G1 X29.958 Y40.251 E0.08217
G1 X19.451 Y29.745 E1.50192
G1 X19.221 Y29.975 E0.03298
G1 X18.548 Y29.639 E0.07606
G1 X18.372 Y29.815 E0.02513
G1 X29.888 Y41.331 E1.64623
G1 X29.313 Y41.906 E0.08217
G1 X28.549 Y41.142 E0.10923
G1 F8640
G1 X29.313 Y41.906 E-0.24951
G1 X29.888 Y41.331 E-0.18771
G1 X28.900 Y40.342 E-0.32278
G1 E-0.04000 F2100.00000
G1 Z5.000 F10800.000
G1 X40.046 Y29.645
G1 Z3.000
G1 E0.80000 F2100.00000
G1 F1107.1
G1 X41.060 Y30.659 E0.14489
;BEFORE_LAYER_CHANGE
G92 E0.0
;4


G1 F8640
G1 X40.046 Y29.645 E-0.33097
G1 E-0.46903 F2100.00000
G1 Z5.000 F10800.000
;AFTER_LAYER_CHANGE
;4
G1 X31.962 Y42.343
G1 Z4.000
G1 E0.80000 F2100.00000
M204 S800
G1 F900
G1 X33.401 Y43.065 E0.18221
G1 X32.315 Y44.149 E0.17369
G1 X31.621 Y42.763 E0.17543
G1 X29.303 Y45.080 E0.37095
G1 X26.986 Y42.763 E0.37102
G1 X26.291 Y44.152 E0.17579
G1 X25.205 Y43.066 E0.17388
G1 X26.645 Y42.343 E0.18231
G1 X29.303 Y45.002 E0.42565
G1 X31.856 Y42.449 E0.40867
M204 S1000
G1 X32.174 Y43.321 F10800.000
G1 F8640
G1 X33.401 Y43.065 E-0.38400
G1 X32.315 Y44.149 E-0.35428
G1 X32.273 Y44.065 E-0.02172
G1 E-0.04000 F2100.00000
G1 Z6.000 F10800.000
G1 X23.901 Y39.601
G1 Z4.000
G1 E0.80000 F2100.00000
M204 S800
G1 F900
G1 X23.179 Y41.040 E0.18218
G1 X21.934 Y39.794 E0.19934
G1 X23.371 Y39.074 E0.18199
G1 X23.795 Y39.495 E0.06765
M204 S1000
G1 X23.183 Y40.297 F10800.000
G1 F8640
G1 X23.179 Y41.040 E-0.38386
G1 X22.027 Y39.888 E-0.37614
G1 E-0.04000 F2100.00000
G1 Z6.000 F10800.000
G1 X20.629 Y36.332
G1 Z4.000
G1 E0.80000 F2100.00000
M204 S800
G1 F900
G1 X19.908 Y37.769 E0.18200
G1 X18.663 Y36.523 E0.19934
G1 X20.102 Y35.802 E0.18218
G1 X20.523 Y36.225 E0.06764
M204 S1000
G1 X19.911 Y37.027 F10800.000
G1 F8640
G1 X19.908 Y37.769 E-0.38364
G1 X18.756 Y36.616 E-0.37636
G1 E-0.04000 F2100.00000
G1 Z6.000 F10800.000
G1 X17.359 Y33.058
G1 Z4.000
G1 E0.80000 F2100.00000
M204 S800
G1 F900
G1 X16.637 Y34.497 E0.18227
G1 X15.552 Y33.412 E0.17374
G1 X16.940 Y32.716 E0.17572
G1 X14.623 Y30.399 E0.37095
G1 X16.940 Y28.082 E0.37095
G1 X15.552 Y27.387 E0.17572
G1 X16.637 Y26.301 E0.17380
G1 X17.359 Y27.740 E0.18230
G1 X14.700 Y30.399 E0.42565
G1 X17.253 Y32.952 E0.40867
M204 S1000
G1 X16.382 Y33.270 F10800.000
G1 F8640
G1 X16.637 Y34.497 E-0.38411
G1 X15.552 Y33.412 E-0.35439
G1 X15.635 Y33.370 E-0.02150
G1 E-0.04000 F2100.00000
G1 Z6.000 F10800.000
G1 X20.098 Y24.995
G1 Z4.000
G1 E0.80000 F2100.00000
M204 S800
G1 F900
G1 X18.663 Y24.275 E0.18177
G1 X19.908 Y23.030 E0.19934
G1 X20.629 Y24.468 E0.18209
G1 X20.205 Y24.889 E0.06774
M204 S1000
G1 X19.403 Y24.277 F10800.000
G1 F8640
G1 X18.663 Y24.275 E-0.38321
G1 X19.817 Y23.121 E-0.37679
G1 E-0.04000 F2100.00000
G1 Z6.000 F10800.000
G1 X23.900 Y21.196
G1 Z4.000
G1 E0.80000 F2100.00000
M204 S800
G1 F900
G1 X23.373 Y21.726 E0.08463
G1 X21.934 Y21.004 E0.18218
G1 X23.179 Y19.759 E0.19934
G1 X23.833 Y21.062 E0.16501
M204 S1000
G1 X23.241 Y21.549 F10800.000
G1 F8640
G1 X23.373 Y21.726 E-0.18652
G1 X21.934 Y21.004 E-0.37161
G1 X22.552 Y20.386 E-0.20188
G1 E-0.04000 F2100.00000
G1 Z6.000 F10800.000
G1 X26.645 Y18.455
G1 Z4.000
G1 E0.80000 F2100.00000
M204 S800
G1 F900
G1 X25.205 Y17.733 E0.18230
G1 X26.291 Y16.648 E0.17380
G1 X26.986 Y18.036 E0.17572
G1 X29.303 Y15.718 E0.37095
G1 X31.621 Y18.036 E0.37095
G1 X32.316 Y16.648 E0.17572
G1 X33.402 Y17.733 E0.17380
G1 X31.962 Y18.455 E0.18230
G1 X29.303 Y15.796 E0.42565
G1 X26.751 Y18.349 E0.40867
M204 S1000
G1 X26.433 Y17.478 F10800.000
G1 F8640
G1 X25.205 Y17.733 E-0.38416
G1 X26.291 Y16.648 E-0.35452
G1 X26.332 Y16.730 E-0.02131
G1 E-0.04000 F2100.00000
G1 Z6.000 F10800.000
G1 X34.707 Y21.196
G1 Z4.000
G1 E0.80000 F2100.00000
M204 S800
G1 F900
G1 X35.428 Y19.759 E0.18201
G1 X36.673 Y21.004 E0.19934
G1 X35.234 Y21.726 E0.18219
G1 X34.813 Y21.302 E0.06764
M204 S1000
G1 X35.425 Y20.500 F10800.000
G1 F8640
G1 X35.428 Y19.759 E-0.38364
G1 X36.580 Y20.911 E-0.37636
G1 E-0.04000 F2100.00000
G1 Z6.000 F10800.000
G1 X38.509 Y24.995
G1 Z4.000
G1 E0.80000 F2100.00000
M204 S800
G1 F900
G1 X37.978 Y24.467 E0.08477
G1 X38.699 Y23.030 E0.18205
G1 X39.944 Y24.275 E0.19934
G1 X38.643 Y24.927 E0.16470
M204 S1000
G1 X38.154 Y24.336 F10800.000
G1 F8640
G1 X37.978 Y24.467 E-0.18686
G1 X38.699 Y23.030 E-0.37135
G1 X39.317 Y23.648 E-0.20179
G1 E-0.04000 F2100.00000
G1 Z6.000 F10800.000
G1 X41.248 Y27.740
G1 Z4.000
G1 E0.80000 F2100.00000
M204 S800
G1 F900
G1 X41.970 Y26.301 E0.18231
G1 X43.055 Y27.387 E0.17382
G1 X41.667 Y28.082 E0.17577
G1 X43.984 Y30.399 E0.37095
G1 X41.667 Y32.716 E0.37095
G1 X43.055 Y33.412 E0.17572
G1 X41.970 Y34.498 E0.17380
G1 X41.248 Y33.058 E0.18230
G1 X43.906 Y30.399 E0.42565
G1 X41.354 Y27.846 E0.40867
M204 S1000
