; generated by PrusaSlicer 2.1.1+win64 on 2020-03-23 at 15:37:31 UTC

; 

; external perimeters extrusion width = 1.13mm
; perimeters extrusion width = 1.13mm
; infill extrusion width = 1.13mm
; solid infill extrusion width = 1.13mm
; top infill extrusion width = 1.00mm

M73 P0 R11
M73 Q0 S11
M201 X1000 Y1000 Z1000 E5000 ; sets maximum accelerations, mm/sec^2
M203 X200 Y200 Z12 E120 ; sets maximum feedrates, mm/sec
M204 P1250 R1250 T1250 ; sets acceleration (P, T) and retract acceleration (R), mm/sec^2
M205 X8.00 Y8.00 Z0.40 E4.50 ; sets the jerk limits, mm/sec
M205 S0 T0 ; sets the minimum extruding and travel feed rate, mm/sec
M107
M862.3 P "MK3S" ; printer model check
M862.1 P1 ; nozzle diameter check
M115 U3.8.1 ; tell printer latest fw version
G90 ; use absolute coordinates
M83 ; extruder relative mode
M104 S215 ; set extruder temp
M140 S60 ; set bed temp
M190 S60 ; wait for bed temp
M109 S215 ; wait for extruder temp
G28 W ; home all without mesh bed level
G80 ; mesh bed leveling
G1 Y-3.0 F1000.0 ; go outside print area
G92 E0.0
G1 X60.0 E9.0 F1000.0 ; intro line
M73 Q0 S11
M73 P0 R11
G1 X100.0 E12.5 F1000.0 ; intro line
G92 E0.0
M221 S95
G21 ; set units to millimeters
G90 ; use absolute coordinates
M83 ; use relative distances for extrusion
M900 K30 ; Filament gcode
;BEFORE_LAYER_CHANGE
G92 E0.0
;1


G1 E-0.80000 F2100.00000
G1 Z2.000 F10800.000
;AFTER_LAYER_CHANGE
;1
G1 X58.082 Y60.126
G1 Z1.000
G1 E0.80000 F2100.00000
M204 S1000
G1 F988.578
G1 X58.403 Y59.771 E0.05414
G1 X58.941 Y59.329 E0.07878
G1 X59.595 Y58.969 E0.08450
G1 X60.300 Y58.744 E0.08380
G1 X60.675 Y58.678 E0.04314
G1 X61.182 Y58.645 E0.05755
G1 X61.912 Y58.713 E0.08296
G1 X62.387 Y58.836 E0.05557
G1 X62.738 Y58.967 E0.04235
G1 X63.130 Y59.161 E0.04950
G1 X63.463 Y59.370 E0.04460
G1 X63.999 Y59.818 E0.07906
G1 X64.481 Y60.405 E0.08593
G1 X64.837 Y61.069 E0.08529
G1 X64.984 Y61.484 E0.04981
G1 X65.088 Y61.911 E0.04977
G1 X65.155 Y62.613 E0.07978
G1 X65.091 Y63.317 E0.08009
G1 X64.987 Y63.750 E0.05040
G1 X64.838 Y64.170 E0.05045
G1 X64.519 Y64.775 E0.07737
G1 X64.247 Y65.144 E0.05190
G1 X63.986 Y65.431 E0.04388
G1 X63.734 Y65.663 E0.03885
G1 X63.359 Y65.944 E0.05300
G1 X62.944 Y66.181 E0.05412
G1 X62.566 Y66.345 E0.04666
G1 X62.178 Y66.468 E0.04602
G1 X61.728 Y66.560 E0.05203
G1 X61.074 Y66.597 E0.07412
G1 X60.609 Y66.556 E0.05280
G1 X60.204 Y66.477 E0.04675
G1 X59.512 Y66.237 E0.08290
G1 X58.889 Y65.878 E0.08144
G1 X58.302 Y65.375 E0.08744
G1 X57.831 Y64.779 E0.08600
G1 X57.483 Y64.105 E0.08591
G1 X57.282 Y63.429 E0.07980
G1 X57.220 Y63.016 E0.04734
G1 X57.199 Y62.552 E0.05259
G1 X57.274 Y61.836 E0.08140
G1 X57.491 Y61.118 E0.08494
G1 X57.832 Y60.469 E0.08297
G1 X57.994 Y60.247 E0.03112
G1 X58.730 Y60.783 F10800.000
G1 F988.578
G1 X59.033 Y60.432 E0.05244
G1 X59.453 Y60.086 E0.06164
G1 X59.956 Y59.810 E0.06497
G1 X60.518 Y59.630 E0.06674
G1 X60.783 Y59.584 E0.03054
G1 X61.170 Y59.558 E0.04384
G1 X61.754 Y59.613 E0.06644
G1 X62.113 Y59.706 E0.04197
G1 X62.377 Y59.804 E0.03179
G1 X62.685 Y59.956 E0.03892
G1 X62.927 Y60.108 E0.03235
G1 X63.350 Y60.462 E0.06239
G1 X63.720 Y60.914 E0.06617
G1 X64.002 Y61.439 E0.06742
G1 X64.110 Y61.745 E0.03675
G1 X64.188 Y62.063 E0.03706
G1 X64.240 Y62.614 E0.06275
G1 X64.190 Y63.169 E0.06304
G1 X64.113 Y63.491 E0.03751
G1 X64.002 Y63.804 E0.03753
G1 X63.745 Y64.290 E0.06222
G1 X63.542 Y64.566 E0.03884
G1 X63.340 Y64.788 E0.03402
G1 X63.151 Y64.963 E0.02906
G1 X62.859 Y65.181 E0.04131
G1 X62.536 Y65.366 E0.04211
G1 X62.246 Y65.491 E0.03573
G1 X61.949 Y65.585 E0.03530
G1 X61.610 Y65.654 E0.03910
G1 X61.088 Y65.684 E0.05921
G1 X60.736 Y65.653 E0.04001
G1 X60.441 Y65.596 E0.03397
G1 X59.892 Y65.405 E0.06583
G1 X59.416 Y65.131 E0.06212
G1 X58.962 Y64.742 E0.06776
G1 X58.600 Y64.283 E0.06611
G1 X58.331 Y63.763 E0.06628
G1 X58.173 Y63.231 E0.06282
G1 X58.127 Y62.928 E0.03476
G1 X58.112 Y62.579 E0.03953
G1 X58.171 Y62.017 E0.06396
G1 X58.337 Y61.464 E0.06532
G1 X58.641 Y60.904 E0.07219
G1 X58.536 Y60.362 F10800.000
G1 F8640
G1 X59.033 Y60.432 E-0.14151
G1 X59.453 Y60.086 E-0.12574
G1 X59.956 Y59.810 E-0.13252
G1 X60.518 Y59.630 E-0.13613
G1 X60.783 Y59.584 E-0.06230
G1 X61.170 Y59.558 E-0.08943
G1 X61.482 Y59.587 E-0.07237
G1 E-0.04000 F2100.00000
G1 Z3.000 F10800.000
G1 X81.896 Y52.699
G1 Z1.000
G1 E0.80000 F2100.00000
G1 F988.578
G1 X78.302 Y54.547 E0.45748
G1 X75.951 Y50.562 E0.52375
G1 X72.330 Y52.733 E0.47788
G1 X67.378 Y50.534 E0.61332
G1 X68.353 Y62.251 E1.33093
G1 X73.247 Y60.186 E0.60126
G1 X75.597 Y64.780 E0.58409
G1 X79.352 Y62.143 E0.51943
G1 X81.695 Y66.339 E0.54402
G1 X85.887 Y63.863 E0.55113
G1 X86.069 Y63.942 E0.02244
G1 X85.280 Y73.298 E1.06284
G1 X82.811 Y74.761 E0.32480
G1 X55.515 Y66.964 E3.21352
G1 X51.846 Y52.165 E1.72592
G1 X57.251 Y50.197 E0.65112
G1 X58.416 Y53.398 E0.38558
G1 X58.654 Y53.810 E0.05383
G1 X59.170 Y54.242 E0.07614
G1 X59.925 Y54.444 E0.08858
G1 X60.460 Y54.350 E0.06140
G1 X63.990 Y53.064 E0.42534
G1 X64.460 Y52.793 E0.06136
G1 X64.908 Y52.152 E0.08856
G1 X65.025 Y51.489 E0.07621
G1 X64.943 Y51.021 E0.05384
G1 X63.777 Y47.820 E0.38556
G1 X69.937 Y45.577 E0.74212
G1 X83.920 Y50.364 E1.67301
G1 X85.297 Y52.273 E0.26638
G1 X83.804 Y56.476 E0.50494
G1 X83.776 Y56.467 E0.00337
G1 X81.963 Y52.833 E0.45969
G1 F8640
G1 X78.982 Y54.228 E-0.76000
G1 E-0.04000 F2100.00000
G1 Z3.000 F10800.000
G1 X81.493 Y53.930
G1 Z1.000
G1 E0.80000 F2100.00000
G1 F988.578
G1 X77.955 Y55.749 E0.45039
G1 X75.632 Y51.814 E0.51720
G1 X72.392 Y53.757 E0.42764
G1 X68.413 Y51.989 E0.49291
G1 X69.156 Y60.924 E1.01484
G1 X73.672 Y59.018 E0.55485
G1 X75.930 Y63.433 E0.56132
G1 X79.655 Y60.818 E0.51517
G1 X82.035 Y65.081 E0.55267
G1 X85.826 Y62.841 E0.49835
G1 X87.030 Y63.370 E0.14893
G1 X86.148 Y73.842 E1.18962
G1 X82.938 Y75.744 E0.42228
G1 X54.758 Y67.695 E3.31755
G1 X50.820 Y51.811 E1.85251
G1 X51.006 Y51.503 E0.04073
G1 X57.795 Y49.030 E0.81786
G1 X59.244 Y53.011 E0.47960
G1 X59.362 Y53.215 E0.02664
G1 X59.600 Y53.415 E0.03515
G1 X59.966 Y53.513 E0.04288
G1 X60.223 Y53.467 E0.02952
G1 X63.604 Y52.236 E0.40732
G1 X63.830 Y52.106 E0.02951
G1 X64.047 Y51.795 E0.04287
G1 X64.101 Y51.489 E0.03518
G1 X64.060 Y51.258 E0.02664
G1 X62.610 Y47.277 E0.47960
G1 X69.928 Y44.612 E0.88158
G1 X84.489 Y49.597 E1.74221
G1 X86.314 Y52.127 E0.35321
G1 X84.362 Y57.627 E0.66064
G1 X83.129 Y57.208 E0.14743
G1 X81.560 Y54.064 E0.39776
G1 X80.982 Y53.070 F10800.000
G1 F8640
G1 X78.578 Y55.458 E-0.76000
G1 E-0.04000 F2100.00000
G1 Z3.000 F10800.000
G1 X81.340 Y52.678
G1 Z1.000
G1 E0.80000 F2100.00000
G1 F976.866
G1 X77.575 Y48.914 E0.60984
G1 X75.594 Y48.235 E0.23989
G1 X80.175 Y52.816 E0.74210
G1 X79.314 Y53.259 E0.11084
G1 X73.613 Y47.557 E0.92366
G1 X71.632 Y46.879 E0.23989
G1 X75.055 Y50.303 E0.55466
G1 X74.241 Y50.791 E0.10880
G1 X69.803 Y46.353 E0.71901
G1 X68.848 Y46.701 E0.11644
G1 X73.426 Y51.279 E0.74178
G1 X72.612 Y51.768 E0.10880
G1 X67.893 Y47.048 E0.76455
G1 X66.937 Y47.396 E0.11644
G1 X70.885 Y51.344 E0.63961
G1 X68.541 Y50.303 E0.29383
G1 X65.982 Y47.744 E0.41457
G1 X65.027 Y48.092 E0.11644
G1 X66.623 Y49.687 E0.25848
G1 X66.741 Y51.109 E0.16337
G1 X65.106 Y49.474 E0.26488
G1 X65.605 Y50.843 E0.16700
G1 X65.697 Y51.368 E0.06102
G1 X66.859 Y52.530 E0.18822
G1 X66.977 Y53.951 E0.16337
G1 X65.510 Y52.484 E0.23773
G1 X64.973 Y53.250 E0.10717
G1 X67.096 Y55.372 E0.34382
G1 X67.214 Y56.793 E0.16337
G1 X64.152 Y53.732 E0.49600
G1 X63.197 Y54.080 E0.11644
G1 X67.332 Y58.214 E0.66989
G1 X67.450 Y59.636 E0.16337
G1 X62.242 Y54.427 E0.84378
G1 X61.287 Y54.775 E0.11644
G1 X68.017 Y61.505 E1.09031
G1 F8640
G1 X65.690 Y59.178 E-0.76000
G1 E-0.04000 F2100.00000
G1 Z3.000 F10800.000
G1 X68.849 Y62.338
G1 Z1.000
G1 E0.80000 F2100.00000
G1 F976.866
G1 X79.663 Y73.152 E1.75193
G1 X81.487 Y73.672 E0.21729
G1 X70.078 Y62.264 E1.84830
G1 X70.995 Y61.877 E0.11393
G1 X83.282 Y74.164 E1.99064
G1 F8640
G1 X80.955 Y71.837 E-0.76000
G1 E-0.04000 F2100.00000
G1 Z3.000 F10800.000
G1 X85.108 Y72.082
G1 Z1.000
G1 E0.80000 F2100.00000
G1 F976.866
G1 X77.385 Y64.358 E1.25126
G1 X76.619 Y64.896 E0.10715
G1 X84.619 Y72.896 E1.29607
G1 X83.801 Y73.381 E0.10894
G1 X75.854 Y65.433 E1.28753
G1 X75.346 Y65.790 E0.07102
G1 X74.442 Y64.021 E0.22750
G1 X71.911 Y61.490 E0.41004
G1 X72.827 Y61.104 E0.11393
G1 X74.020 Y62.296 E0.19316
G1 F8640
G1 X72.827 Y61.104 E-0.38934
G1 X71.911 Y61.490 E-0.22964
G1 X72.343 Y61.922 E-0.14102
G1 E-0.04000 F2100.00000
G1 Z3.000 F10800.000
G1 X80.638 Y65.006
G1 Z1.000
G1 E0.80000 F2100.00000
G1 F976.866
G1 X78.916 Y63.284 E0.27899
G1 X78.150 Y63.821 E0.10715
G1 X84.831 Y70.501 E1.08223
G1 X84.932 Y69.299 E0.13814
G1 X82.367 Y66.735 E0.41546
G1 X83.186 Y66.251 E0.10898
G1 X85.033 Y68.098 E0.29918
G1 X85.134 Y66.896 E0.13814
G1 X84.005 Y65.767 E0.18290
G1 X84.824 Y65.283 E0.10898
G1 X85.615 Y66.074 E0.12804
G1 F8640
G1 X84.824 Y65.283 E-0.25809
G1 X84.005 Y65.767 E-0.21966
G1 X84.870 Y66.632 E-0.28225
G1 E-0.04000 F2100.00000
G1 Z3.000 F10800.000
G1 X78.436 Y73.227
G1 Z1.000
G1 E0.80000 F2100.00000
G1 F976.866
G1 X59.930 Y54.721 E2.99812
G1 F8640
G1 X62.257 Y57.048 E-0.76000
G1 E-0.04000 F2100.00000
G1 Z3.000 F10800.000
G1 X57.850 Y52.641
G1 Z1.000
G1 E0.80000 F2100.00000
G1 F976.866
G1 X56.431 Y51.222 E0.22988
G1 X55.476 Y51.570 E0.11644
G1 X61.935 Y58.029 E1.04643
G1 X61.192 Y57.960 E0.08555
G1 X60.602 Y57.999 E0.06770
G1 X54.521 Y51.918 E0.98515
G1 X53.566 Y52.266 E0.11644
G1 X59.563 Y58.263 E0.97155
G1 X59.323 Y58.339 E0.02880
G1 X58.687 Y58.690 E0.08323
G1 X52.677 Y52.680 E0.97364
G1 X53.106 Y54.412 E0.20446
G1 X57.952 Y59.258 E0.78501
G1 X57.551 Y59.694 E0.06790
G1 X57.355 Y59.964 E0.03817
G1 X53.536 Y56.145 E0.61874
G1 X53.965 Y57.877 E0.20446
G1 X56.887 Y60.799 E0.47334
G1 X56.602 Y61.701 E0.10842
G1 X56.591 Y61.806 E0.01202
G1 X54.395 Y59.609 E0.35577
G1 X54.824 Y61.342 E0.20446
G1 X57.033 Y63.551 E0.35785
G1 F8640
G1 X54.824 Y61.342 E-0.72130
G1 X54.784 Y61.179 E-0.03870
G1 E-0.04000 F2100.00000
G1 Z3.000 F10800.000
G1 X58.373 Y67.497
G1 Z1.000
G1 E0.80000 F2100.00000
G1 F976.866
G1 X55.683 Y64.807 E0.43581
G1 X55.254 Y63.074 E0.20446
G1 X60.197 Y68.018 E0.80087
G1 F8640
G1 X57.870 Y65.690 E-0.76000
G1 E-0.04000 F2100.00000
G1 Z3.000 F10800.000
G1 X60.246 Y66.764
G1 Z1.000
G1 E0.80000 F2100.00000
G1 F976.866
G1 X61.425 Y67.942 E0.19091
G1 X63.249 Y68.463 E0.21729
G1 X61.989 Y67.203 E0.20411
G1 X62.350 Y67.130 E0.04224
G1 X62.805 Y66.985 E0.05470
G1 X62.992 Y66.904 E0.02337
G1 X65.072 Y68.984 E0.33699
G1 X66.896 Y69.505 E0.21729
G1 X63.833 Y66.442 E0.49626
G1 X64.171 Y66.189 E0.04835
G1 X64.536 Y65.841 E0.05771
G1 X68.720 Y70.026 E0.67794
G1 X70.544 Y70.547 E0.21729
G1 X65.112 Y65.114 E0.88010
G1 X65.465 Y64.445 E0.08670
G1 X65.538 Y64.238 E0.02515
G1 X72.368 Y71.068 E1.10645
G1 X74.192 Y71.589 E0.21729
G1 X65.788 Y63.185 E1.36143
G1 X65.840 Y62.611 E0.06603
G1 X65.769 Y61.863 E0.08606
G1 X76.612 Y72.706 E1.75660
G1 F8640
G1 X74.285 Y70.379 E-0.76000
G1 E-0.04000 F2100.00000
G1 Z3.000 F10800.000
G1 X84.281 Y54.317
G1 Z1.000
G1 E0.80000 F2100.00000
M73 Q10 S10
M73 P9 R10
G1 F976.866
G1 X79.557 Y49.592 E0.76544
G1 X81.538 Y50.270 E0.23989
G1 X84.623 Y53.355 E0.49978
G1 F8640
G1 X82.295 Y51.028 E-0.76000
G1 E-0.04000 F2100.00000
G1 Z3.000 F10800.000
G1 X60.856 Y49.870
G1 Z1.000
G1 E0.80000 F2100.00000
G1 F988.578
G1 X60.805 Y49.889 E0.00614
G1 X59.607 Y46.598 E0.39636
G1 X59.226 Y46.022 E0.07827
G1 X59.657 Y45.771 E0.05651
G1 X59.592 Y46.000 E0.02688
G1 X59.659 Y46.580 E0.06616
G1 X60.805 Y49.729 E0.37933
G1 F8640
G1 X60.805 Y49.889 E-0.03683
G1 X59.734 Y46.946 E-0.72317
G1 E-0.04000 F2100.00000
G1 Z3.000 F10800.000
G1 X56.222 Y46.183
G1 Z1.000
G1 E0.80000 F2100.00000
G1 F988.578
G1 X50.738 Y48.180 E0.66070
G1 X49.981 Y45.596 E0.30487
G1 X54.574 Y43.422 E0.57526
G1 X56.074 Y46.007 E0.33829
G1 X56.126 Y46.068 E0.00906
G1 F8640
G1 X53.061 Y47.270 E-0.76000
G1 E-0.04000 F2100.00000
G1 Z3.000 F10800.000
G1 X62.054 Y44.060
G1 Z1.000
G1 E0.80000 F2100.00000
G1 F988.578
G1 X62.233 Y43.728 E0.04262
G1 X62.251 Y42.965 E0.08648
G1 X62.075 Y42.510 E0.05513
G1 X60.875 Y40.441 E0.27080
G1 X65.821 Y38.101 E0.61939
G1 X67.376 Y42.121 E0.48796
G1 X62.195 Y44.008 E0.62422
G1 F8640
G1 X62.233 Y43.728 E-0.06522
G1 X62.251 Y42.965 E-0.17640
G1 X62.075 Y42.510 E-0.11246
G1 X61.193 Y40.990 E-0.40593
G1 E-0.04000 F2100.00000
G1 Z3.000 F10800.000
G1 X67.369 Y37.369
G1 Z1.000
G1 E0.80000 F2100.00000
G1 F988.578
G1 X67.510 Y37.302 E0.01774
G1 X69.100 Y35.585 E0.26489
G1 X72.187 Y32.318 E0.50873
G1 X73.429 Y34.223 E0.25740
G1 X73.972 Y36.106 E0.22184
G1 X70.722 Y37.044 E0.38290
G1 X67.518 Y37.354 E0.36444
G1 F8640
G1 X67.510 Y37.302 E-0.01226
G1 X69.100 Y35.585 E-0.54033
G1 X69.717 Y34.932 E-0.20741
G1 E-0.04000 F2100.00000
G1 Z3.000 F10800.000
G1 X66.886 Y38.330
G1 Z1.000
G1 E0.80000 F2100.00000
G1 F988.578
G1 X68.503 Y42.511 E0.50739
G1 X68.414 Y42.712 E0.02499
G1 X61.017 Y45.406 E0.89103
G1 X60.812 Y45.519 E0.02655
G1 X60.600 Y45.786 E0.03854
G1 X60.517 Y46.076 E0.03419
G1 X60.551 Y46.370 E0.03343
G1 X61.939 Y50.183 E0.45943
G1 X61.833 Y50.483 E0.03601
G1 X60.452 Y50.986 E0.16639
G1 X60.178 Y50.825 E0.03602
G1 X58.789 Y47.011 E0.45944
G1 X58.600 Y46.726 E0.03873
G1 X58.172 Y46.527 E0.05339
G1 X57.833 Y46.566 E0.03870
G1 X50.262 Y49.322 E0.91203
G1 X50.102 Y49.248 E0.02003
G1 X48.959 Y45.348 E0.46004
G1 X49.163 Y44.975 E0.04802
G1 X54.942 Y42.241 E0.72368
G1 X56.822 Y45.482 E0.42406
G1 X56.973 Y45.662 E0.02665
G1 X57.221 Y45.804 E0.03229
G1 X57.526 Y45.857 E0.03512
G1 X57.843 Y45.771 E0.03716
G1 X60.973 Y43.956 E0.40963
G1 X61.155 Y43.808 E0.02653
G1 X61.328 Y43.488 E0.04114
G1 X61.337 Y43.124 E0.04119
G1 X61.252 Y42.905 E0.02652
G1 X59.591 Y40.042 E0.37479
G1 X66.962 Y36.554 E0.92310
G1 X68.435 Y34.963 E0.24550
G1 X72.049 Y31.139 E0.59560
G1 X72.458 Y31.067 E0.04696
G1 X74.266 Y33.840 E0.37471
G1 X75.018 Y36.446 E0.30702
G1 X74.501 Y36.901 E0.07801
G1 X70.894 Y37.942 E0.42493
G1 X67.035 Y38.316 E0.43887
G1 X65.933 Y38.633 F10800.000
G1 F8640
G1 X68.122 Y41.422 E-0.76000
G1 E-0.04000 F2100.00000
G1 Z3.000 F10800.000
G1 X69.929 Y36.846
G1 Z1.000
G1 E0.80000 F2100.00000
G1 F896.739
G1 X69.375 Y36.293 E0.09769
G1 X70.062 Y35.561 E0.12531
G1 X70.810 Y36.308 E0.13188
G1 X71.911 Y35.990 E0.14307
G1 X70.752 Y34.831 E0.20458
G1 X71.442 Y34.101 E0.12530
G1 X73.344 Y36.003 E0.33567
G1 F8640
G1 X71.442 Y34.101 E-0.62109
G1 X71.029 Y34.538 E-0.13891
G1 E-0.04000 F2100.00000
G1 Z3.000 F10800.000
G1 X66.957 Y41.794
G1 Z1.000
G1 E0.80000 F2100.00000
G1 F899.226
G1 X64.598 Y39.435 E0.41521
G1 X63.637 Y39.890 E0.13228
G1 X65.738 Y41.991 E0.36984
G1 X64.701 Y42.369 E0.13742
G1 X62.676 Y40.344 E0.35633
G1 X61.838 Y40.741 E0.11535
G1 X62.088 Y41.172 E0.06208
G1 X63.983 Y43.066 E0.33337
G1 F8640
G1 X62.088 Y41.172 E-0.61854
G1 X61.838 Y40.741 E-0.11519
G1 X61.941 Y40.692 E-0.02627
G1 E-0.04000 F2100.00000
G1 Z3.000 F10800.000
G1 X55.119 Y46.294
G1 Z1.000
G1 E0.80000 F2100.00000
G1 F984.057
G1 X53.507 Y44.682 E0.25921
G1 X52.629 Y45.098 E0.11046
G1 X53.851 Y46.320 E0.19653
G1 X52.903 Y46.665 E0.11475
G1 X51.751 Y45.513 E0.18525
G1 X50.873 Y45.929 E0.11046
G1 X52.275 Y47.330 E0.22537
G1 F8640
G1 X50.873 Y45.929 E-0.45760
G1 X51.751 Y45.513 E-0.22428
G1 X51.991 Y45.752 E-0.07812
G1 E-0.04000 F2100.00000
G1 Z3.000 F10800.000
G1 X57.868 Y42.234
G1 Z1.000
G1 E0.80000 F2100.00000
G1 F988.578
G1 X56.042 Y39.086 E0.41203
G1 X55.710 Y38.738 E0.05437
G1 X55.942 Y38.568 E0.03254
G1 X56.089 Y39.059 E0.05806
G1 X57.867 Y42.124 E0.40113
G1 F8640
G1 X56.172 Y39.303 E-0.76000
G1 E-0.04000 F2100.00000
G1 Z3.000 F10800.000
G1 X52.361 Y39.431
G1 Z1.000
G1 E0.80000 F2100.00000
G1 F988.578
G1 X47.999 Y41.961 E0.57084
G1 X46.194 Y39.908 E0.30953
G1 X50.513 Y36.970 E0.59132
G1 X52.251 Y39.330 E0.33181
G1 F8640
G1 X49.452 Y41.062 E-0.76000
G1 E-0.04000 F2100.00000
G1 Z3.000 F10800.000
G1 X58.090 Y36.107
G1 Z1.000
G1 E0.80000 F2100.00000
G1 F988.578
G1 X58.049 Y35.617 E0.05568
G1 X57.824 Y35.184 E0.05515
G1 X56.260 Y33.060 E0.29867
G1 X66.260 Y26.257 E1.36915
G1 X66.385 Y26.291 E0.01463
G1 X65.656 Y31.718 E0.61978
G1 X58.220 Y36.032 E0.97314
G1 F8640
G1 X58.049 Y35.617 E-0.10365
