; generated by PrusaSlicer 2.1.1+win64 on 2020-02-29 at 17:36:37 UTC

; 

; external perimeters extrusion width = 0.45mm
; perimeters extrusion width = 0.45mm
; infill extrusion width = 0.45mm
; solid infill extrusion width = 0.45mm
; top infill extrusion width = 0.40mm
; first layer extrusion width = 0.42mm

M73 P0 R2
M73 Q0 S2
M201 X1000 Y1000 Z1000 E5000 ; sets maximum accelerations, mm/sec^2
M203 X200 Y200 Z12 E120 ; sets maximum feedrates, mm/sec
M204 P1250 R1250 T1250 ; sets acceleration (P, T) and retract acceleration (R), mm/sec^2
M205 X8.00 Y8.00 Z0.40 E4.50 ; sets the jerk limits, mm/sec
M205 S0 T0 ; sets the minimum extruding and travel feed rate, mm/sec
M107 ; disable fan
M862.3 P "MK3S" ; printer model check
M862.1 P0.4 ; nozzle diameter check
M115 U3.8.1 ; tell printer latest fw version
G90 ; use absolute coordinates
M83 ; extruder relative mode
M104 S215 ; set extruder temp
M140 S60 ; set bed temp
M190 S60 ; wait for bed temp
M109 S215 ; wait for extruder temp
G28 W ; home all without mesh bed level
G80 ; mesh bed leveling
G1 Y-3.0 F1000.0 ; go outside print area
G92 E0.0
G1 X60.0 E9.0 F1000.0 ; intro line
M73 Q3 S2
M73 P3 R2
G1 X100.0 E12.5 F1000.0 ; intro line
G92 E0.0
M221 S95
G21 ; set units to millimeters
G90 ; use absolute coordinates
M83 ; use relative distances for extrusion
M900 K30 ; Filament gcode
;BEFORE_LAYER_CHANGE
G92 E0.0
;0.2


G1 E-0.80000 F2100.00000 ; retract
G1 Z0.600 F10800.000 ; lift Z
;AFTER_LAYER_CHANGE
;0.2
G1 X5.886 Y6.609 ; move to first skirt point
G1 Z0.200 ; restore layer Z
G1 E0.80000 F2100.00000 ; unretract
M204 S1000 ; adjust acceleration
G1 F900
G1 X6.482 Y6.267 E0.02156 ; skirt
G1 X7.137 Y6.056 E0.02156 ; skirt
G1 X7.784 Y5.983 E0.02043 ; skirt
G1 X12.702 Y5.983 E0.15418 ; skirt
G1 X13.754 Y6.156 E0.03345 ; skirt
G1 X14.698 Y6.654 E0.03345 ; skirt
G1 X15.435 Y7.425 E0.03345 ; skirt
G1 X15.889 Y8.390 E0.03345 ; skirt
G1 X16.016 Y9.233 E0.02674 ; skirt
G1 X16.014 Y14.451 E0.16361 ; skirt
G1 X15.881 Y15.248 E0.02534 ; skirt
G1 X15.561 Y15.986 E0.02520 ; skirt
G1 X15.105 Y16.593 E0.02380 ; skirt
G1 X14.527 Y17.077 E0.02366 ; skirt
G1 X13.850 Y17.421 E0.02380 ; skirt
G1 X13.112 Y17.601 E0.02380 ; skirt
G1 X7.620 Y17.621 E0.17221 ; skirt
G1 X6.855 Y17.482 E0.02436 ; skirt
G1 X6.148 Y17.171 E0.02422 ; skirt
G1 X5.541 Y16.715 E0.02380 ; skirt
G1 X5.054 Y16.133 E0.02380 ; skirt
G1 X4.712 Y15.456 E0.02380 ; skirt
G1 X4.532 Y14.718 E0.02380 ; skirt
G1 X4.513 Y9.100 E0.17613 ; skirt
G1 X4.651 Y8.336 E0.02436 ; skirt
G1 X4.963 Y7.624 E0.02436 ; skirt
G1 X5.373 Y7.067 E0.02170 ; skirt
G1 X5.841 Y6.649 E0.01967 ; skirt
G1 F8640
G1 X6.482 Y6.267 E-0.17232 ; wipe and retract
G1 X7.137 Y6.056 E-0.15874 ; wipe and retract
G1 X7.784 Y5.983 E-0.15047 ; wipe and retract
G1 X8.990 Y5.983 E-0.27847 ; wipe and retract
G1 E-0.04000 F2100.00000 ; retract
G1 Z0.800 F10800.000 ; lift Z
G1 X7.276 Y6.412 ; move to first skirt point
G1 Z0.200 ; restore layer Z
G1 E0.80000 F2100.00000 ; unretract
G1 F900
G1 X12.701 Y6.360 E0.17011 ; skirt
G1 X13.650 Y6.519 E0.03016 ; skirt
G1 X14.494 Y6.972 E0.03003 ; skirt
G1 X15.149 Y7.676 E0.03016 ; skirt
G1 X15.543 Y8.554 E0.03016 ; skirt
G1 X15.640 Y9.258 E0.02227 ; skirt
G1 X15.637 Y14.443 E0.16258 ; skirt
G1 X15.510 Y15.172 E0.02319 ; skirt
G1 X15.206 Y15.846 E0.02319 ; skirt
G1 X14.794 Y16.372 E0.02095 ; skirt
G1 X14.271 Y16.794 E0.02108 ; skirt
G1 X13.669 Y17.085 E0.02095 ; skirt
G1 X13.017 Y17.233 E0.02095 ; skirt
G1 X7.645 Y17.244 E0.16846 ; skirt
G1 X6.942 Y17.114 E0.02240 ; skirt
G1 X6.288 Y16.816 E0.02253 ; skirt
G1 X5.762 Y16.404 E0.02095 ; skirt
G1 X5.340 Y15.881 E0.02108 ; skirt
G1 X5.048 Y15.275 E0.02108 ; skirt
G1 X4.901 Y14.619 E0.02108 ; skirt
G1 X4.889 Y9.125 E0.17226 ; skirt
G1 X5.020 Y8.418 E0.02253 ; skirt
G1 X5.318 Y7.764 E0.02253 ; skirt
G1 X5.692 Y7.278 E0.01923 ; skirt
G1 X6.154 Y6.882 E0.01910 ; skirt
G1 X6.689 Y6.589 E0.01910 ; skirt
G1 X7.219 Y6.429 E0.01735 ; skirt
G1 X7.320 Y6.796 F10800.000 ; move to first skirt point
G1 F900
G1 X7.404 Y6.772 E0.00272 ; skirt
G1 X12.701 Y6.737 E0.16610 ; skirt
G1 X13.540 Y6.880 E0.02668 ; skirt
G1 X14.286 Y7.288 E0.02668 ; skirt
G1 X14.857 Y7.919 E0.02668 ; skirt
G1 X15.191 Y8.701 E0.02668 ; skirt
G1 X15.263 Y9.274 E0.01808 ; skirt
G1 X15.260 Y14.430 E0.16168 ; skirt
G1 X15.140 Y15.090 E0.02103 ; skirt
G1 X14.854 Y15.697 E0.02103 ; skirt
G1 X14.487 Y16.146 E0.01820 ; skirt
G1 X14.027 Y16.501 E0.01820 ; skirt
G1 X13.500 Y16.744 E0.01820 ; skirt
G1 X12.932 Y16.862 E0.01820 ; skirt
G1 X7.669 Y16.868 E0.16503 ; skirt
G1 X7.025 Y16.744 E0.02054 ; skirt
G1 X6.437 Y16.464 E0.02042 ; skirt
G1 X5.988 Y16.097 E0.01820 ; skirt
G1 X5.633 Y15.638 E0.01820 ; skirt
G1 X5.389 Y15.107 E0.01832 ; skirt
G1 X5.272 Y14.538 E0.01820 ; skirt
G1 X5.266 Y9.149 E0.16898 ; skirt
G1 X5.388 Y8.505 E0.02054 ; skirt
G1 X5.670 Y7.914 E0.02054 ; skirt
G1 X6.004 Y7.498 E0.01672 ; skirt
G1 X6.416 Y7.160 E0.01672 ; skirt
G1 X6.890 Y6.915 E0.01672 ; skirt
G1 X7.262 Y6.812 E0.01212 ; skirt
G1 X6.667 Y7.447 F10800.000 ; move to first skirt point
G1 F900
G1 X7.515 Y7.137 E0.02833 ; skirt
G1 X12.701 Y7.114 E0.16260 ; skirt
G1 X13.428 Y7.240 E0.02315 ; skirt
G1 X14.076 Y7.603 E0.02326 ; skirt
G1 X14.562 Y8.158 E0.02315 ; skirt
G1 X14.837 Y8.844 E0.02315 ; skirt
G1 X14.883 Y14.413 E0.17464 ; skirt
G1 X14.773 Y15.001 E0.01873 ; skirt
G1 X14.508 Y15.536 E0.01873 ; skirt
G1 X14.188 Y15.910 E0.01544 ; skirt
G1 X13.792 Y16.202 E0.01544 ; skirt
G1 X13.340 Y16.399 E0.01544 ; skirt
G1 X12.856 Y16.490 E0.01544 ; skirt
G1 X7.695 Y16.492 E0.16182 ; skirt
G1 X7.123 Y16.380 E0.01828 ; skirt
G1 X6.598 Y16.118 E0.01839 ; skirt
G1 X6.224 Y15.798 E0.01544 ; skirt
G1 X5.932 Y15.402 E0.01544 ; skirt
G1 X5.735 Y14.950 E0.01544 ; skirt
G1 X5.644 Y14.467 E0.01544 ; skirt
G1 X5.642 Y9.175 E0.16591 ; skirt
G1 X5.754 Y8.599 E0.01839 ; skirt
G1 X6.016 Y8.074 E0.01839 ; skirt
G1 X6.623 Y7.489 E0.02645 ; skirt
; printing object cube.stl id:0 copy 0
G1 F8640
G1 X7.515 Y7.137 E-0.22137 ; wipe and retract
G1 X9.848 Y7.127 E-0.53863 ; wipe and retract
G1 E-0.04000 F2100.00000 ; retract
G1 Z0.800 F10800.000 ; lift Z
G1 X8.414 Y9.890 ; move to first perimeter point
G1 Z0.200 ; restore layer Z
G1 E0.80000 F2100.00000 ; unretract
G1 F900
G1 X12.110 Y9.890 E0.11589 ; perimeter
G1 X12.110 Y13.720 E0.12010 ; perimeter
G1 X8.414 Y13.720 E0.11589 ; perimeter
G1 X8.414 Y9.950 E0.11821 ; perimeter
G1 X8.037 Y9.513 F10800.000 ; move to first perimeter point
G1 F900
G1 X12.487 Y9.513 E0.13954 ; perimeter
G1 X12.487 Y14.097 E0.14374 ; perimeter
G1 X8.037 Y14.097 E0.13954 ; perimeter
G1 X8.037 Y9.573 E0.14186 ; perimeter
G1 X8.423 Y9.618 F10800.000 ; move inwards before travel
G1 F8640
G1 X11.328 Y9.528 E-0.76000 ; wipe and retract
G1 E-0.04000 F2100.00000 ; retract
G1 Z0.800 F10800.000 ; lift Z
G1 X8.527 Y12.820 ; move to first infill point
G1 Z0.200 ; restore layer Z
G1 E0.80000 F2100.00000 ; unretract
G1 F900
G1 X9.144 Y13.437 E0.02824 ; infill
G1 X9.694 Y13.437 E0.01778 ; infill
G1 X8.697 Y12.440 E0.04563 ; infill
G1 X8.697 Y11.890 E0.01778 ; infill
G1 X10.244 Y13.437 E0.07078 ; infill
G1 X10.794 Y13.437 E0.01778 ; infill
G1 X8.697 Y11.340 E0.09593 ; infill
G1 X8.697 Y10.790 E0.01778 ; infill
G1 X11.344 Y13.437 E0.12107 ; infill
G1 X11.827 Y13.437 E0.01562 ; infill
G1 X11.827 Y13.370 E0.00216 ; infill
G1 X8.697 Y10.240 E0.14316 ; infill
G1 X8.697 Y10.173 E0.00217 ; infill
G1 X9.180 Y10.173 E0.01561 ; infill
G1 X11.827 Y12.821 E0.12108 ; infill
G1 X11.827 Y12.271 E0.01778 ; infill
G1 X9.729 Y10.173 E0.09593 ; infill
G1 X10.279 Y10.173 E0.01778 ; infill
G1 X11.827 Y11.721 E0.07078 ; infill
G1 X11.827 Y11.171 E0.01778 ; infill
G1 X10.829 Y10.173 E0.04563 ; infill
G1 X11.379 Y10.173 E0.01778 ; infill
G1 X11.997 Y10.790 E0.02824 ; infill
; stop printing object cube.stl id:0 copy 0
M106 S255 ; enable fan
;BEFORE_LAYER_CHANGE
G92 E0.0
;0.35


G1 F8640
G1 X11.379 Y10.173 E-0.20168 ; wipe and retract
G1 X10.829 Y10.173 E-0.12699 ; wipe and retract
G1 X11.827 Y11.171 E-0.32586 ; wipe and retract
G1 X11.827 Y11.627 E-0.10548 ; wipe and retract
G1 E-0.04000 F2100.00000 ; retract
G1 Z0.800 F10800.000 ; lift Z
;AFTER_LAYER_CHANGE
;0.35
M104 S210 ; set temperature
G1 X15.435 Y7.425 ; move to first skirt point
G1 Z0.350 ; restore layer Z
G1 E0.80000 F2100.00000 ; unretract
G1 F900
G1 X15.889 Y8.390 E0.02580 ; skirt
G1 X16.016 Y9.233 E0.02063 ; skirt
G1 X16.014 Y14.451 E0.12620 ; skirt
G1 X15.881 Y15.248 E0.01955 ; skirt
G1 X15.561 Y15.986 E0.01944 ; skirt
G1 X15.105 Y16.593 E0.01836 ; skirt
G1 X14.527 Y17.077 E0.01825 ; skirt
G1 X13.850 Y17.421 E0.01836 ; skirt
G1 X13.112 Y17.601 E0.01836 ; skirt
G1 X7.620 Y17.621 E0.13284 ; skirt
G1 X6.855 Y17.482 E0.01879 ; skirt
G1 X6.148 Y17.171 E0.01868 ; skirt
G1 X5.541 Y16.715 E0.01836 ; skirt
G1 X5.054 Y16.133 E0.01836 ; skirt
G1 X4.712 Y15.456 E0.01836 ; skirt
G1 X4.532 Y14.718 E0.01836 ; skirt
G1 X4.513 Y9.100 E0.13586 ; skirt
G1 X4.651 Y8.336 E0.01879 ; skirt
G1 X4.963 Y7.624 E0.01879 ; skirt
G1 X5.373 Y7.067 E0.01673 ; skirt
G1 X5.886 Y6.609 E0.01663 ; skirt
G1 X6.482 Y6.267 E0.01663 ; skirt
G1 X7.137 Y6.056 E0.01663 ; skirt
G1 X7.784 Y5.983 E0.01576 ; skirt
G1 X12.702 Y5.983 E0.11893 ; skirt
G1 X13.754 Y6.156 E0.02580 ; skirt
G1 X14.698 Y6.654 E0.02580 ; skirt
G1 X15.393 Y7.381 E0.02435 ; skirt
; printing object cube.stl id:0 copy 0
G1 F8640
G1 X15.889 Y8.390 E-0.25948 ; wipe and retract
G1 X16.016 Y9.233 E-0.19694 ; wipe and retract
G1 X16.016 Y10.548 E-0.30359 ; wipe and retract
G1 E-0.04000 F2100.00000 ; retract
G1 Z0.950 F10800.000 ; lift Z
G1 X12.054 Y9.946 ; move to first perimeter point
G1 Z0.350 ; restore layer Z
G1 E0.80000 F2100.00000 ; unretract
M204 S800 ; adjust acceleration
G1 F900
G1 X12.054 Y13.664 E0.09690 ; perimeter
G1 X8.470 Y13.664 E0.09340 ; perimeter
G1 X8.470 Y9.946 E0.09690 ; perimeter
G1 X11.994 Y9.946 E0.09184 ; perimeter
M204 S1000 ; adjust acceleration
G1 X12.472 Y9.528 F10800.000 ; move to first perimeter point
M204 S800 ; adjust acceleration
G1 F900
G1 X12.472 Y14.082 E0.11867 ; perimeter
G1 X8.052 Y14.082 E0.11518 ; perimeter
G1 X8.052 Y9.528 E0.11867 ; perimeter
G1 X12.412 Y9.528 E0.11361 ; perimeter
M204 S1000 ; adjust acceleration
G1 X12.371 Y9.915 F10800.000 ; move inwards before travel
G1 F8640
G1 X12.456 Y12.819 E-0.76000 ; wipe and retract
G1 E-0.04000 F2100.00000 ; retract
G1 Z0.950 F10800.000 ; lift Z
G1 X9.492 Y10.071 ; move to first infill point
G1 Z0.350 ; restore layer Z
G1 E0.80000 F2100.00000 ; unretract
G1 F900
G1 X8.783 Y10.780 E0.02768 ; infill
G1 X8.783 Y11.406 E0.01728 ; infill
G1 X9.930 Y10.259 E0.04478 ; infill
G1 X10.556 Y10.259 E0.01728 ; infill
G1 X8.783 Y12.032 E0.06922 ; infill
G1 X8.783 Y12.658 E0.01728 ; infill
G1 X11.182 Y10.259 E0.09365 ; infill
G1 X11.741 Y10.259 E0.01543 ; infill
G1 X11.741 Y10.326 E0.00185 ; infill
G1 X8.783 Y13.284 E0.11548 ; infill
G1 X8.783 Y13.351 E0.00185 ; infill
G1 X9.342 Y13.351 E0.01543 ; infill
G1 X11.741 Y10.952 E0.09366 ; infill
G1 X11.741 Y11.578 E0.01728 ; infill
G1 X9.968 Y13.351 E0.06922 ; infill
G1 X10.594 Y13.351 E0.01728 ; infill
G1 X11.741 Y12.204 E0.04478 ; infill
G1 X11.741 Y12.830 E0.01728 ; infill
G1 X11.032 Y13.539 E0.02769 ; infill
; stop printing object cube.stl id:0 copy 0
;BEFORE_LAYER_CHANGE
G92 E0.0
;0.5


G1 F8640
G1 X11.741 Y12.830 E-0.23160 ; wipe and retract
G1 X11.741 Y12.204 E-0.14454 ; wipe and retract
G1 X10.594 Y13.351 E-0.37462 ; wipe and retract
G1 X10.554 Y13.351 E-0.00924 ; wipe and retract
G1 E-0.04000 F2100.00000 ; retract
G1 Z0.950 F10800.000 ; lift Z
;AFTER_LAYER_CHANGE
;0.5
G1 X14.698 Y6.654 ; move to first skirt point
G1 Z0.500 ; restore layer Z
G1 E0.80000 F2100.00000 ; unretract
G1 F900
G1 X15.435 Y7.425 E0.02580 ; skirt
G1 X15.889 Y8.390 E0.02580 ; skirt
G1 X16.016 Y9.233 E0.02063 ; skirt
G1 X16.014 Y14.451 E0.12620 ; skirt
G1 X15.881 Y15.248 E0.01955 ; skirt
G1 X15.561 Y15.986 E0.01944 ; skirt
G1 X15.105 Y16.593 E0.01836 ; skirt
G1 X14.527 Y17.077 E0.01825 ; skirt
G1 X13.850 Y17.421 E0.01836 ; skirt
G1 X13.112 Y17.601 E0.01836 ; skirt
G1 X7.620 Y17.621 E0.13284 ; skirt
G1 X6.855 Y17.482 E0.01879 ; skirt
G1 X6.148 Y17.171 E0.01868 ; skirt
G1 X5.541 Y16.715 E0.01836 ; skirt
G1 X5.054 Y16.133 E0.01836 ; skirt
G1 X4.712 Y15.456 E0.01836 ; skirt
G1 X4.532 Y14.718 E0.01836 ; skirt
G1 X4.513 Y9.100 E0.13586 ; skirt
G1 X4.651 Y8.336 E0.01879 ; skirt
G1 X4.963 Y7.624 E0.01879 ; skirt
G1 X5.373 Y7.067 E0.01673 ; skirt
G1 X5.886 Y6.609 E0.01663 ; skirt
G1 X6.482 Y6.267 E0.01663 ; skirt
G1 X7.137 Y6.056 E0.01663 ; skirt
G1 X7.784 Y5.983 E0.01576 ; skirt
G1 X12.702 Y5.983 E0.11893 ; skirt
G1 X13.754 Y6.156 E0.02580 ; skirt
G1 X14.645 Y6.626 E0.02435 ; skirt
; printing object cube.stl id:0 copy 0
G1 F8640
G1 X15.435 Y7.425 E-0.25948 ; wipe and retract
G1 X15.889 Y8.390 E-0.24630 ; wipe and retract
G1 X16.016 Y9.233 E-0.19694 ; wipe and retract
G1 X16.016 Y9.481 E-0.05729 ; wipe and retract
G1 E-0.04000 F2100.00000 ; retract
G1 Z1.100 F10800.000 ; lift Z
G1 X12.054 Y9.946 ; move to first perimeter point
G1 Z0.500 ; restore layer Z
G1 E0.80000 F2100.00000 ; unretract
M204 S800 ; adjust acceleration
G1 F900
G1 X12.054 Y13.664 E0.09690 ; perimeter
G1 X8.470 Y13.664 E0.09340 ; perimeter
G1 X8.470 Y9.946 E0.09690 ; perimeter
G1 X11.994 Y9.946 E0.09184 ; perimeter
M204 S1000 ; adjust acceleration
G1 X12.472 Y9.528 F10800.000 ; move to first perimeter point
M204 S800 ; adjust acceleration
G1 F900
G1 X12.472 Y14.082 E0.11867 ; perimeter
G1 X8.052 Y14.082 E0.11518 ; perimeter
G1 X8.052 Y9.528 E0.11867 ; perimeter
G1 X12.412 Y9.528 E0.11361 ; perimeter
M204 S1000 ; adjust acceleration
G1 X12.371 Y9.915 F10800.000 ; move inwards before travel
G1 F8640
G1 X12.456 Y12.819 E-0.76000 ; wipe and retract
G1 E-0.04000 F2100.00000 ; retract
G1 Z1.100 F10800.000 ; lift Z
G1 X11.929 Y10.968 ; move to first infill point
G1 Z0.500 ; restore layer Z
G1 E0.80000 F2100.00000 ; unretract
G1 F900
G1 X11.220 Y10.259 E0.02769 ; infill
G1 X10.594 Y10.259 E0.01728 ; infill
G1 X11.741 Y11.406 E0.04478 ; infill
G1 X11.741 Y12.032 E0.01728 ; infill
G1 X9.968 Y10.259 E0.06922 ; infill
G1 X9.342 Y10.259 E0.01728 ; infill
G1 X11.741 Y12.658 E0.09366 ; infill
G1 X11.741 Y13.284 E0.01728 ; infill
G1 X8.783 Y10.326 E0.11548 ; infill
G1 X8.783 Y10.952 E0.01728 ; infill
G1 X11.182 Y13.351 E0.09365 ; infill
G1 X10.556 Y13.351 E0.01728 ; infill
G1 X8.783 Y11.578 E0.06922 ; infill
G1 X8.783 Y12.204 E0.01728 ; infill
G1 X9.930 Y13.351 E0.04478 ; infill
G1 X9.304 Y13.351 E0.01728 ; infill
G1 X8.595 Y12.642 E0.02768 ; infill
; stop printing object cube.stl id:0 copy 0
;BEFORE_LAYER_CHANGE
G92 E0.0
;0.65


G1 F8640
G1 X9.304 Y13.351 E-0.23156 ; wipe and retract
G1 X9.930 Y13.351 E-0.14454 ; wipe and retract
G1 X8.783 Y12.204 E-0.37458 ; wipe and retract
G1 X8.783 Y12.164 E-0.00932 ; wipe and retract
G1 E-0.04000 F2100.00000 ; retract
G1 Z1.100 F10800.000 ; lift Z
;AFTER_LAYER_CHANGE
;0.65
; printing object cube.stl id:0 copy 0
G1 X8.470 Y13.664 ; move to first perimeter point
G1 Z0.650 ; restore layer Z
G1 E0.80000 F2100.00000 ; unretract
M204 S800 ; adjust acceleration
G1 F900
G1 X8.470 Y9.946 E0.09690 ; perimeter
G1 X12.054 Y9.946 E0.09340 ; perimeter
G1 X12.054 Y13.664 E0.09690 ; perimeter
G1 X8.530 Y13.664 E0.09184 ; perimeter
M204 S1000 ; adjust acceleration
G1 X8.052 Y14.082 F10800.000 ; move to first perimeter point
M204 S800 ; adjust acceleration
G1 F900
G1 X8.052 Y9.528 E0.11867 ; perimeter
G1 X12.472 Y9.528 E0.11518 ; perimeter
G1 X12.472 Y14.082 E0.11867 ; perimeter
G1 X8.112 Y14.082 E0.11361 ; perimeter
M204 S1000 ; adjust acceleration
G1 X8.153 Y13.695 F10800.000 ; move inwards before travel
G1 F8640
G1 X8.068 Y10.791 E-0.76000 ; wipe and retract
G1 E-0.04000 F2100.00000 ; retract
G1 Z1.250 F10800.000 ; lift Z
G1 X11.032 Y13.539 ; move to first infill point
G1 Z0.650 ; restore layer Z
G1 E0.80000 F2100.00000 ; unretract
G1 F900
G1 X11.741 Y12.830 E0.02769 ; infill
G1 X11.741 Y12.204 E0.01728 ; infill
G1 X10.594 Y13.351 E0.04478 ; infill
G1 X9.968 Y13.351 E0.01728 ; infill
G1 X11.741 Y11.578 E0.06922 ; infill
