; generated by PrusaSlicer 2.1.1+win64 on 2020-03-10 at 20:23:33 UTC

; 

; external perimeters extrusion width = 1.13mm
; perimeters extrusion width = 1.13mm
; infill extrusion width = 1.13mm
; solid infill extrusion width = 1.13mm
; top infill extrusion width = 1.00mm

M73 P0 R13
M73 Q0 S13
M201 X1000 Y1000 Z1000 E5000 ; sets maximum accelerations, mm/sec^2
M203 X200 Y200 Z12 E120 ; sets maximum feedrates, mm/sec
M204 P1250 R1250 T1250 ; sets acceleration (P, T) and retract acceleration (R), mm/sec^2
M205 X8.00 Y8.00 Z0.40 E4.50 ; sets the jerk limits, mm/sec
M205 S0 T0 ; sets the minimum extruding and travel feed rate, mm/sec
M107
M862.3 P "MK3S" ; printer model check
M862.1 P1 ; nozzle diameter check
M115 U3.8.1 ; tell printer latest fw version
G90 ; use absolute coordinates
M83 ; extruder relative mode
M104 S215 ; set extruder temp
M140 S60 ; set bed temp
M190 S60 ; wait for bed temp
M109 S215 ; wait for extruder temp
G28 W ; home all without mesh bed level
G80 ; mesh bed leveling
G1 Y-3.0 F1000.0 ; go outside print area
G92 E0.0
G1 X60.0 E9.0 F1000.0 ; intro line
M73 Q0 S13
M73 P0 R13
G1 X100.0 E12.5 F1000.0 ; intro line
G92 E0.0
M221 S95
G21 ; set units to millimeters
G90 ; use absolute coordinates
M83 ; use relative distances for extrusion
M900 K30 ; Filament gcode
;BEFORE_LAYER_CHANGE
G92 E0.0
;1


G1 E-0.80000 F2100.00000
G1 Z2.000 F10800.000
;AFTER_LAYER_CHANGE
;1
G1 X18.726 Y25.325
G1 Z1.000
G1 E0.80000 F2100.00000
M204 S1000
G1 F900
G1 X19.040 Y25.105 E0.04341
G1 X19.387 Y24.943 E0.04341
G1 X19.758 Y24.844 E0.04341
G1 X20.140 Y24.810 E0.04341
G1 X20.522 Y24.844 E0.04342
G1 X20.892 Y24.943 E0.04341
G1 X21.240 Y25.105 E0.04341
G1 X21.554 Y25.325 E0.04341
G1 X21.825 Y25.596 E0.04341
G1 X22.045 Y25.910 E0.04341
G1 X22.207 Y26.258 E0.04341
G1 X22.307 Y26.628 E0.04341
G1 X22.340 Y27.010 E0.04341
G1 X22.307 Y27.392 E0.04341
G1 X22.207 Y27.763 E0.04341
G1 X22.045 Y28.110 E0.04341
G1 X21.825 Y28.425 E0.04341
G1 X21.554 Y28.696 E0.04341
G1 X21.240 Y28.916 E0.04341
G1 X20.892 Y29.078 E0.04341
G1 X20.522 Y29.177 E0.04341
G1 X20.140 Y29.211 E0.04341
G1 X19.758 Y29.177 E0.04341
G1 X19.387 Y29.078 E0.04341
G1 X19.040 Y28.916 E0.04341
G1 X18.726 Y28.696 E0.04341
G1 X18.454 Y28.425 E0.04341
G1 X18.234 Y28.110 E0.04341
G1 X18.072 Y27.763 E0.04341
G1 X17.973 Y27.392 E0.04341
G1 X17.940 Y27.010 E0.04341
G1 X17.973 Y26.628 E0.04341
G1 X18.072 Y26.258 E0.04341
G1 X18.234 Y25.910 E0.04341
G1 X18.454 Y25.596 E0.04341
G1 X18.620 Y25.431 E0.02643
G1 X17.976 Y24.787 F10800.000
G1 F900
G1 X18.138 Y24.625 E0.02600
G1 X18.583 Y24.313 E0.06145
G1 X19.075 Y24.084 E0.06145
G1 X19.599 Y23.944 E0.06145
G1 X20.140 Y23.896 E0.06145
G1 X20.681 Y23.944 E0.06145
G1 X21.205 Y24.084 E0.06145
G1 X21.697 Y24.313 E0.06145
G1 X22.142 Y24.625 E0.06145
G1 X22.525 Y25.009 E0.06145
G1 X22.837 Y25.453 E0.06145
G1 X23.066 Y25.945 E0.06145
G1 X23.207 Y26.470 E0.06145
G1 X23.254 Y27.010 E0.06145
G1 X23.207 Y27.551 E0.06145
G1 X23.066 Y28.075 E0.06145
G1 X22.837 Y28.567 E0.06145
G1 X22.525 Y29.012 E0.06145
G1 X22.142 Y29.396 E0.06145
G1 X21.697 Y29.707 E0.06145
G1 X21.205 Y29.937 E0.06145
G1 X20.681 Y30.077 E0.06145
G1 X20.140 Y30.124 E0.06145
G1 X19.599 Y30.077 E0.06145
G1 X19.075 Y29.937 E0.06145
G1 X18.583 Y29.707 E0.06145
G1 X18.138 Y29.396 E0.06145
G1 X17.754 Y29.012 E0.06145
G1 X17.443 Y28.567 E0.06145
G1 X17.214 Y28.075 E0.06145
G1 X17.073 Y27.551 E0.06145
G1 X17.026 Y27.010 E0.06145
G1 X17.073 Y26.470 E0.06145
G1 X17.214 Y25.945 E0.06145
G1 X17.443 Y25.453 E0.06145
G1 X17.754 Y25.009 E0.06145
G1 X17.870 Y24.893 E0.01847
G1 X18.200 Y24.838 F10800.000
G1 F8640
G1 X18.138 Y24.625 E-0.08766
G1 X18.583 Y24.313 E-0.12534
G1 X19.075 Y24.084 E-0.12534
G1 X19.599 Y23.944 E-0.12534
G1 X20.140 Y23.896 E-0.12534
G1 X20.681 Y23.944 E-0.12534
G1 X20.872 Y23.995 E-0.04564
G1 E-0.04000 F2100.00000
G1 Z3.000 F10800.000
G1 X19.967 Y28.921
G1 Z1.000
G1 E0.80000 F2100.00000
G1 F900
G1 X18.861 Y27.815 E0.19105
G1 X18.716 Y27.528 E0.03921
G1 X18.648 Y27.273 E0.03225
G1 X18.625 Y27.010 E0.03225
G1 X18.648 Y26.747 E0.03225
G1 X18.716 Y26.492 E0.03225
G1 X18.783 Y26.348 E0.01937
G1 X20.802 Y28.367 E0.34857
G1 X20.897 Y28.322 E0.01287
G1 X21.114 Y28.171 E0.03225
G1 X21.300 Y27.984 E0.03225
G1 X21.452 Y27.768 E0.03225
G1 X21.496 Y27.672 E0.01286
G1 X19.478 Y25.654 E0.34858
G1 X19.622 Y25.587 E0.01939
G1 X19.877 Y25.518 E0.03225
G1 X20.140 Y25.495 E0.03225
G1 X20.403 Y25.519 E0.03225
G1 X20.658 Y25.587 E0.03225
G1 X20.944 Y25.731 E0.03914
G1 X22.051 Y26.838 E0.19113
M106 S255
;BEFORE_LAYER_CHANGE
G92 E0.0
;2


G1 F8640
G1 X20.944 Y25.731 E-0.36140
G1 X20.658 Y25.587 E-0.07401
G1 X20.403 Y25.519 E-0.06097
G1 X20.140 Y25.495 E-0.06097
G1 X19.877 Y25.518 E-0.06097
G1 X19.622 Y25.587 E-0.06097
G1 X19.478 Y25.654 E-0.03666
G1 X19.613 Y25.789 E-0.04405
G1 E-0.04000 F2100.00000
G1 Z3.000 F10800.000
;AFTER_LAYER_CHANGE
;2
M104 S210 ; set temperature
G1 X17.622 Y31.371
G1 Z2.000
G1 E0.80000 F2100.00000
M204 S800
G1 F900
G1 X16.903 Y30.867 E0.09935
G1 X16.283 Y30.247 E0.09935
G1 X15.779 Y29.528 E0.09935
G1 X15.409 Y28.732 E0.09935
G1 X15.181 Y27.885 E0.09935
G1 X15.105 Y27.010 E0.09935
G1 X15.181 Y26.136 E0.09935
G1 X15.409 Y25.288 E0.09935
G1 X15.779 Y24.493 E0.09935
G1 X16.283 Y23.774 E0.09935
G1 X16.903 Y23.153 E0.09935
G1 X17.622 Y22.650 E0.09935
G1 X18.418 Y22.279 E0.09935
G1 X19.266 Y22.052 E0.09935
G1 X20.140 Y21.975 E0.09935
G1 X21.014 Y22.052 E0.09935
G1 X21.862 Y22.279 E0.09935
G1 X22.657 Y22.650 E0.09935
G1 X23.376 Y23.153 E0.09935
G1 X23.997 Y23.774 E0.09935
G1 X24.500 Y24.493 E0.09935
G1 X24.871 Y25.288 E0.09935
G1 X25.098 Y26.136 E0.09935
G1 X25.175 Y27.010 E0.09935
G1 X25.098 Y27.885 E0.09935
G1 X24.871 Y28.732 E0.09935
G1 X24.500 Y29.528 E0.09935
G1 X23.997 Y30.247 E0.09935
G1 X23.376 Y30.867 E0.09935
G1 X22.657 Y31.371 E0.09935
G1 X21.862 Y31.742 E0.09935
G1 X21.014 Y31.969 E0.09935
G1 X20.140 Y32.045 E0.09935
G1 X19.266 Y31.969 E0.09935
G1 X18.418 Y31.742 E0.09935
G1 X17.758 Y31.434 E0.08237
M204 S1000
G1 F8640
G1 X16.903 Y30.867 E-0.23684
G1 X16.283 Y30.247 E-0.20265
G1 X15.779 Y29.528 E-0.20265
G1 X15.564 Y29.065 E-0.11786
G1 E-0.04000 F2100.00000
G1 Z4.000 F10800.000
G1 X20.757 Y21.116
G1 Z2.000
G1 E0.80000 F2100.00000
M204 S800
G1 F900
G1 X21.173 Y21.152 E0.04725
G1 X22.174 Y21.420 E0.11738
G1 X23.114 Y21.858 E0.11738
G1 X23.964 Y22.453 E0.11738
G1 X24.697 Y23.186 E0.11738
G1 X25.292 Y24.036 E0.11738
G1 X25.730 Y24.976 E0.11738
G1 X25.998 Y25.977 E0.11738
G1 X26.089 Y27.010 E0.11738
G1 X25.998 Y28.043 E0.11738
G1 X25.730 Y29.045 E0.11738
G1 X25.292 Y29.985 E0.11738
G1 X24.697 Y30.834 E0.11738
G1 X23.964 Y31.567 E0.11738
G1 X23.114 Y32.162 E0.11738
G1 X22.174 Y32.600 E0.11738
G1 X21.173 Y32.869 E0.11738
G1 X20.140 Y32.959 E0.11738
G1 X19.107 Y32.869 E0.11738
G1 X18.105 Y32.600 E0.11738
G1 X17.165 Y32.162 E0.11738
G1 X16.316 Y31.567 E0.11738
G1 X15.583 Y30.834 E0.11738
G1 X14.988 Y29.985 E0.11738
G1 X14.550 Y29.045 E0.11738
G1 X14.281 Y28.043 E0.11738
G1 X14.191 Y27.010 E0.11738
G1 X14.281 Y25.977 E0.11738
G1 X14.550 Y24.976 E0.11738
G1 X14.988 Y24.036 E0.11738
G1 X15.583 Y23.187 E0.11738
G1 X16.316 Y22.453 E0.11738
G1 X17.165 Y21.858 E0.11738
G1 X18.105 Y21.420 E0.11738
G1 X19.107 Y21.152 E0.11738
G1 X20.140 Y21.062 E0.11738
G1 X20.608 Y21.102 E0.05315
M204 S1000
G1 X20.947 Y21.487 F10800.000
G1 F8640
G1 X21.173 Y21.152 E-0.13102
G1 X22.174 Y21.420 E-0.23943
G1 X23.114 Y21.858 E-0.23943
G1 X23.647 Y22.231 E-0.15011
G1 E-0.04000 F2100.00000
G1 Z4.000 F10800.000
G1 X22.803 Y23.087
G1 Z2.000
G1 E0.80000 F2100.00000
G1 F1379.85
G1 X20.816 Y22.737 E0.16364
G1 X20.140 Y22.678 E0.05503
G1 X19.388 Y22.744 E0.06125
G1 X18.658 Y22.939 E0.06125
G1 X18.046 Y23.225 E0.05480
G1 X23.402 Y24.169 E0.44114
G1 X23.459 Y24.225 E0.00645
G1 X23.892 Y24.844 E0.06125
G1 X24.089 Y25.266 E0.03779
G1 X17.026 Y24.021 E0.58167
G1 X16.821 Y24.225 E0.02346
G1 X16.370 Y24.882 E0.06455
G1 X24.410 Y26.299 E0.66208
G1 X24.472 Y27.010 E0.05790
G1 X24.449 Y27.282 E0.02212
G1 X21.238 Y26.716 E0.26439
G1 X21.281 Y27.010 E0.02413
G1 X21.264 Y27.209 E0.01613
G1 X21.212 Y27.401 E0.01613
G1 X21.071 Y27.663 E0.02414
G1 X24.282 Y28.229 E0.26439
G1 X24.211 Y28.492 E0.02211
G1 X23.909 Y29.139 E0.05791
G1 X15.870 Y27.722 E0.66208
G1 X15.807 Y27.010 E0.05791
G1 X15.831 Y26.739 E0.02211
G1 X19.042 Y27.305 E0.26439
G1 X18.999 Y27.010 E0.02414
G1 X19.016 Y26.812 E0.01613
G1 X19.067 Y26.620 E0.01613
G1 X19.209 Y26.358 E0.02413
G1 X15.578 Y25.718 E0.29899
G1 F8640
G1 X18.819 Y26.289 E-0.76000
G1 E-0.04000 F2100.00000
G1 Z4.000 F10800.000
G1 X19.794 Y27.524
G1 Z2.000
G1 E0.80000 F2100.00000
G1 F823.815
G1 X20.653 Y26.664 E0.16515
G1 F8640
G1 X19.794 Y27.524 E-0.28072
G1 E-0.51928 F2100.00000
G1 Z4.000 F10800.000
G1 X23.765 Y30.090
G1 Z2.000
G1 E0.80000 F2100.00000
G1 F1379.85
G1 X16.191 Y28.754 E0.62373
G1 X16.388 Y29.177 E0.03778
G1 X16.821 Y29.795 E0.06125
G1 X16.877 Y29.852 E0.00647
G1 X22.234 Y30.796 E0.44111
G1 X21.622 Y31.082 E0.05478
G1 X20.892 Y31.277 E0.06125
G1 X20.140 Y31.343 E0.06125
G1 X19.463 Y31.284 E0.05512
G1 X17.477 Y30.933 E0.16354
;BEFORE_LAYER_CHANGE
G92 E0.0
;3


G1 F8640
G1 X19.463 Y31.284 E-0.46562
G1 X20.140 Y31.343 E-0.15693
G1 X20.733 Y31.291 E-0.13746
G1 E-0.04000 F2100.00000
G1 Z4.000 F10800.000
;AFTER_LAYER_CHANGE
;3
G1 X20.954 Y33.815
G1 Z3.000
G1 E0.80000 F2100.00000
M204 S800
G1 F900
G1 X20.140 Y33.886 E0.09248
G1 X18.946 Y33.782 E0.13568
G1 X17.788 Y33.472 E0.13568
G1 X16.702 Y32.965 E0.13568
G1 X15.720 Y32.278 E0.13568
G1 X14.872 Y31.430 E0.13568
G1 X14.185 Y30.448 E0.13568
G1 X13.678 Y29.362 E0.13568
G1 X13.368 Y28.204 E0.13568
G1 X13.264 Y27.010 E0.13568
G1 X13.368 Y25.816 E0.13568
G1 X13.678 Y24.659 E0.13568
G1 X14.185 Y23.572 E0.13568
G1 X14.872 Y22.590 E0.13568
G1 X15.720 Y21.743 E0.13568
G1 X16.702 Y21.055 E0.13568
G1 X17.788 Y20.549 E0.13568
G1 X18.946 Y20.239 E0.13568
G1 X20.140 Y20.134 E0.13568
G1 X21.334 Y20.239 E0.13568
G1 X22.492 Y20.549 E0.13568
G1 X23.578 Y21.055 E0.13568
G1 X24.560 Y21.743 E0.13568
G1 X25.407 Y22.590 E0.13568
G1 X26.095 Y23.572 E0.13568
G1 X26.601 Y24.659 E0.13568
G1 X26.912 Y25.816 E0.13568
G1 X27.016 Y27.010 E0.13568
G1 X26.912 Y28.204 E0.13568
G1 X26.601 Y29.362 E0.13568
G1 X26.095 Y30.448 E0.13568
G1 X25.407 Y31.430 E0.13568
G1 X24.560 Y32.278 E0.13568
G1 X23.578 Y32.965 E0.13568
G1 X22.492 Y33.472 E0.13568
G1 X21.334 Y33.782 E0.13568
G1 X21.103 Y33.802 E0.02622
M204 S1000
G1 X21.183 Y34.709 F10800.000
M204 S800
G1 F900
G1 X20.140 Y34.800 E0.11848
G1 X18.787 Y34.682 E0.15371
G1 X17.476 Y34.331 E0.15371
G1 X16.245 Y33.757 E0.15371
G1 X15.133 Y32.978 E0.15371
G1 X14.172 Y32.018 E0.15371
G1 X13.394 Y30.905 E0.15371
G1 X12.820 Y29.675 E0.15371
G1 X12.468 Y28.363 E0.15371
G1 X12.350 Y27.010 E0.15371
G1 X12.468 Y25.658 E0.15371
G1 X12.820 Y24.346 E0.15371
G1 X13.394 Y23.115 E0.15371
G1 X14.172 Y22.003 E0.15371
G1 X15.133 Y21.043 E0.15371
G1 X16.245 Y20.264 E0.15371
G1 X17.476 Y19.690 E0.15371
G1 X18.787 Y19.339 E0.15371
G1 X20.140 Y19.220 E0.15371
G1 X21.493 Y19.339 E0.15371
G1 X22.804 Y19.690 E0.15371
G1 X24.035 Y20.264 E0.15371
G1 X25.147 Y21.043 E0.15371
G1 X26.107 Y22.003 E0.15371
G1 X26.886 Y23.115 E0.15371
G1 X27.460 Y24.346 E0.15371
G1 X27.812 Y25.658 E0.15371
G1 X27.930 Y27.010 E0.15371
G1 X27.812 Y28.363 E0.15371
G1 X27.460 Y29.675 E0.15371
G1 X26.886 Y30.905 E0.15371
G1 X26.107 Y32.018 E0.15371
G1 X25.147 Y32.978 E0.15371
G1 X24.035 Y33.757 E0.15371
G1 X22.804 Y34.331 E0.15371
G1 X21.493 Y34.682 E0.15371
G1 X21.332 Y34.696 E0.01825
M204 S1000
G1 X20.571 Y33.918 F10800.000
G1 F8640
G1 X20.140 Y34.800 E-0.27631
G1 X18.787 Y34.682 E-0.31354
G1 X18.075 Y34.491 E-0.17015
G1 E-0.04000 F2100.00000
G1 Z5.000 F10800.000
G1 X20.798 Y33.553
G1 Z3.000
G1 E0.80000 F2100.00000
G1 F1427.19
G1 X18.024 Y32.810 E0.22516
G1 X17.053 Y32.357 E0.08403
G1 X16.172 Y31.740 E0.08438
G1 X15.617 Y31.185 E0.06146
G1 X22.684 Y33.079 E0.57364
G1 F8640
G1 X19.505 Y32.227 E-0.76000
G1 E-0.04000 F2100.00000
G1 Z5.000 F10800.000
G1 X23.459 Y26.101
G1 Z3.000
G1 E0.80000 F2100.00000
G1 F1278.42
G1 X21.963 Y24.604 E0.18524
G1 X21.654 Y24.388 E0.03299
G1 X21.175 Y24.165 E0.04620
G1 X20.666 Y24.028 E0.04620
G1 X20.140 Y23.982 E0.04620
G1 X19.948 Y23.999 E0.01687
G1 X23.151 Y27.202 E0.39653
G1 X23.122 Y27.536 E0.02933
G1 X22.985 Y28.046 E0.04620
G1 X22.858 Y28.319 E0.02636
G1 X18.831 Y24.292 E0.49847
G1 X18.626 Y24.388 E0.01984
G1 X18.194 Y24.691 E0.04620
G1 X18.007 Y24.877 E0.02310
G1 X22.273 Y29.143 E0.52809
G1 X22.086 Y29.330 E0.02310
G1 X21.654 Y29.633 E0.04620
G1 X21.448 Y29.728 E0.01985
G1 X17.422 Y25.702 E0.49846
G1 X17.295 Y25.975 E0.02635
G1 X17.158 Y26.485 E0.04620
G1 X17.129 Y26.818 E0.02934
G1 X20.332 Y30.022 E0.39651
G1 X20.140 Y30.038 E0.01686
G1 X19.614 Y29.992 E0.04620
G1 X19.104 Y29.856 E0.04620
G1 X18.626 Y29.633 E0.04620
G1 X18.317 Y29.416 E0.03303
G1 X16.821 Y27.920 E0.18518
G1 F8640
G1 X18.317 Y29.416 E-0.48848
G1 X18.626 Y29.633 E-0.08714
G1 X19.104 Y29.856 E-0.12187
G1 X19.366 Y29.926 E-0.06251
G1 E-0.04000 F2100.00000
G1 Z5.000 F10800.000
G1 X23.981 Y21.673
G1 Z3.000
G1 E0.80000 F2100.00000
G1 F1427.19
G1 X21.207 Y20.930 E0.22522
G1 X20.140 Y20.837 E0.08399
G1 X19.068 Y20.930 E0.08438
G1 X18.311 Y21.133 E0.06147
G1 X24.663 Y22.835 E0.51563
G1 X24.869 Y23.042 E0.02291
G1 X25.486 Y23.923 E0.08438
G1 X25.546 Y24.052 E0.01108
G1 X16.937 Y21.745 E0.69883
G1 X16.172 Y22.281 E0.07330
G1 X15.984 Y22.469 E0.02082
G1 X18.885 Y23.246 E0.23548
G1 X18.780 Y23.274 E0.00850
G1 X18.152 Y23.567 E0.05434
G1 X17.675 Y23.901 E0.04569
G1 X15.262 Y23.255 E0.19587
G1 X14.793 Y23.923 E0.06402
G1 X14.717 Y24.088 E0.01424
G1 X16.935 Y24.682 E0.18005
G1 X16.697 Y25.022 E0.03254
G1 X16.458 Y25.534 E0.04428
G1 X14.322 Y24.962 E0.17341
G1 X14.077 Y25.876 E0.07418
G1 X16.213 Y26.448 E0.17341
G1 X16.164 Y27.010 E0.04427
G1 X16.200 Y27.424 E0.03255
G1 X13.982 Y26.830 E0.18005
G1 X13.966 Y27.010 E0.01423
G1 X14.037 Y27.824 E0.06403
G1 X16.450 Y28.470 E0.19588
G1 X16.697 Y28.998 E0.04568
G1 X17.094 Y29.566 E0.05434
G1 X17.171 Y29.643 E0.00851
G1 X14.270 Y28.866 E0.23549
G1 X14.339 Y29.122 E0.02081
G1 X14.734 Y29.969 E0.07331
G1 X23.342 Y32.276 E0.69882
G1 X24.108 Y31.740 E0.07331
G1 X24.296 Y31.552 E0.02081
G1 X21.395 Y30.775 E0.23549
G1 X21.500 Y30.747 E0.00851
G1 X22.128 Y30.454 E0.05434
G1 X22.605 Y30.120 E0.04568
G1 X25.018 Y30.766 E0.19588
G1 X25.486 Y30.097 E0.06403
G1 X25.563 Y29.933 E0.01423
G1 X23.345 Y29.338 E0.18005
G1 X23.583 Y28.998 E0.03255
G1 X23.822 Y28.487 E0.04427
G1 X25.958 Y29.059 E0.17341
G1 X26.203 Y28.145 E0.07418
G1 X24.067 Y27.573 E0.17341
G1 X24.116 Y27.010 E0.04427
G1 X24.080 Y26.597 E0.03254
G1 X26.298 Y27.191 E0.18005
G1 X26.314 Y27.010 E0.01424
G1 X26.242 Y26.197 E0.06402
G1 X23.829 Y25.550 E0.19587
G1 X23.583 Y25.022 E0.04569
G1 X23.186 Y24.455 E0.05434
G1 X23.109 Y24.378 E0.00850
G1 X26.484 Y25.282 E0.27396
;BEFORE_LAYER_CHANGE
G92 E0.0
;4


G1 F8640
G1 X23.305 Y24.430 E-0.76000
G1 E-0.04000 F2100.00000
G1 Z5.000 F10800.000
;AFTER_LAYER_CHANGE
;4
G1 X26.745 Y22.021
G1 Z4.000
G1 E0.80000 F2100.00000
M204 S800
G1 F900
G1 X27.332 Y22.858 E0.11567
G1 X27.943 Y24.170 E0.16386
G1 X28.318 Y25.568 E0.16386
G1 X28.444 Y27.010 E0.16386
G1 X28.318 Y28.452 E0.16386
G1 X27.943 Y29.851 E0.16386
G1 X27.332 Y31.162 E0.16386
G1 X26.501 Y32.348 E0.16386
G1 X25.478 Y33.372 E0.16386
G1 X24.292 Y34.202 E0.16386
G1 X22.980 Y34.814 E0.16386
G1 X21.582 Y35.188 E0.16386
G1 X20.140 Y35.315 E0.16386
G1 X18.698 Y35.188 E0.16386
G1 X17.300 Y34.814 E0.16386
G1 X15.988 Y34.202 E0.16386
G1 X14.802 Y33.372 E0.16386
G1 X13.778 Y32.348 E0.16386
G1 X12.948 Y31.162 E0.16386
G1 X12.336 Y29.851 E0.16386
G1 X11.962 Y28.452 E0.16386
G1 X11.836 Y27.010 E0.16386
G1 X11.962 Y25.568 E0.16386
G1 X12.336 Y24.170 E0.16386
G1 X12.948 Y22.858 E0.16386
G1 X13.778 Y21.672 E0.16386
G1 X14.802 Y20.649 E0.16386
G1 X15.988 Y19.819 E0.16386
G1 X17.300 Y19.207 E0.16386
G1 X18.698 Y18.832 E0.16386
G1 X20.140 Y18.706 E0.16386
G1 X21.582 Y18.832 E0.16386
G1 X22.980 Y19.207 E0.16386
G1 X24.292 Y19.819 E0.16386
G1 X25.478 Y20.649 E0.16386
G1 X26.501 Y21.672 E0.16386
G1 X26.659 Y21.898 E0.03120
